;  Created by Sandify
;  https://sandify.org
;  Version: 0.2.8
;
;  Machine type: Rectangular
;    Min X (mm): 0
;    Max X (mm): 500
;    Min Y (mm): 0
;    Max Y (mm): 500
;  Content type: shape
;  Layer:
;    Shape: Heart
;    Name: bubbles
;    Visible: true
;    Initial width: 22
;    Initial height: 22
;    X offset: 0
;    Y offset: 0
;    Rotate (degrees): 0
;    Reverse path: false
;    Number of loops: 16
;    When transforming shape: smear
;    Scale: true
;      Scale (+/-): 100
;      Scale by: constant
;    Spin: true
;      Spin (+/-): 2
;      Spin by: constant
;        Switchbacks: 0
;    Track: false
;    Fine tuning:
;      Connect to next layer: line
;      Draw portion of path (%): 100
;      Backtrack at end (%): 0
;      Rotate starting point (%): 0
;  Reverse export path: false
;
; File name: 'heart 1'
; File type: scara
;

G1 X1.492 Y-1.492
G1 X1.492 Y-1.491
G1 X1.493 Y-1.489
G1 X1.499 Y-1.483
G1 X1.509 Y-1.471
G1 X1.523 Y-1.455
G1 X1.543 Y-1.434
G1 X1.567 Y-1.408
G1 X1.595 Y-1.378
G1 X1.626 Y-1.344
G1 X1.659 Y-1.308
G1 X1.696 Y-1.269
G1 X1.734 Y-1.228
G1 X1.774 Y-1.185
G1 X1.816 Y-1.141
G1 X1.859 Y-1.095
G1 X1.905 Y-1.047
G1 X1.951 Y-0.998
G1 X1.999 Y-0.948
G1 X2.048 Y-0.896
G1 X2.098 Y-0.844
G1 X2.149 Y-0.791
G1 X2.200 Y-0.738
G1 X2.252 Y-0.684
G1 X2.305 Y-0.630
G1 X2.357 Y-0.576
G1 X2.410 Y-0.523
G1 X2.463 Y-0.469
G1 X2.515 Y-0.416
G1 X2.567 Y-0.364
G1 X2.619 Y-0.312
G1 X2.671 Y-0.260
G1 X2.723 Y-0.208
G1 X2.776 Y-0.156
G1 X2.829 Y-0.103
G1 X2.884 Y-0.049
G1 X2.941 Y0.006
G1 X3.001 Y0.064
G1 X3.064 Y0.125
G1 X3.132 Y0.191
G1 X3.204 Y0.262
G1 X3.283 Y0.338
G1 X3.367 Y0.421
G1 X3.458 Y0.510
G1 X3.555 Y0.606
G1 X3.655 Y0.705
G1 X3.757 Y0.807
G1 X3.858 Y0.908
G1 X3.954 Y1.005
G1 X4.042 Y1.095
G1 X4.121 Y1.176
G1 X4.190 Y1.247
G1 X4.249 Y1.308
G1 X4.297 Y1.360
G1 X4.336 Y1.402
G1 X4.368 Y1.436
G1 X4.392 Y1.463
G1 X4.410 Y1.484
G1 X4.423 Y1.499
G1 X4.431 Y1.510
G1 X4.437 Y1.518
G1 X4.440 Y1.522
G1 X4.441 Y1.525
G1 X4.441 Y1.526
G1 X4.440 Y1.526
G1 X4.440 Y1.526
G1 X4.441 Y1.526
G1 X4.443 Y1.528
G1 X4.447 Y1.531
G1 X4.454 Y1.537
G1 X4.465 Y1.546
G1 X4.480 Y1.559
G1 X4.500 Y1.578
G1 X4.527 Y1.602
G1 X4.561 Y1.634
G1 X4.603 Y1.673
G1 X4.654 Y1.722
G1 X4.715 Y1.781
G1 X4.786 Y1.850
G1 X4.865 Y1.927
G1 X4.867 Y1.929
G1 X4.950 Y2.011
G1 X4.957 Y2.018
G1 X5.042 Y2.102
G1 X5.053 Y2.114
G1 X5.139 Y2.199
G1 X5.154 Y2.214
G1 X5.238 Y2.299
G1 X5.255 Y2.317
G1 X5.336 Y2.399
G1 X5.355 Y2.417
G1 X5.431 Y2.496
G1 X5.450 Y2.514
G1 X5.521 Y2.588
G1 X5.538 Y2.606
G1 X5.605 Y2.675
G1 X5.621 Y2.691
G1 X5.683 Y2.756
G1 X5.697 Y2.770
G1 X5.754 Y2.831
G1 X5.767 Y2.844
G1 X5.821 Y2.901
G1 X5.831 Y2.912
G1 X5.884 Y2.967
G1 X5.892 Y2.976
G1 X5.943 Y3.029
G1 X5.949 Y3.036
G1 X5.999 Y3.089
G1 X6.004 Y3.094
G1 X6.053 Y3.146
G1 X6.057 Y3.150
G1 X6.106 Y3.201
G1 X6.109 Y3.204
G1 X6.159 Y3.255
G1 X6.160 Y3.257
G1 X6.210 Y3.309
G1 X6.212 Y3.310
G1 X6.262 Y3.361
G1 X6.263 Y3.363
G1 X6.314 Y3.414
G1 X6.315 Y3.415
G1 X6.365 Y3.466
G1 X6.367 Y3.468
G1 X6.418 Y3.519
G1 X6.419 Y3.520
G1 X6.470 Y3.571
G1 X6.472 Y3.573
G1 X6.524 Y3.624
G1 X6.526 Y3.626
G1 X6.577 Y3.677
G1 X6.579 Y3.679
G1 X6.631 Y3.729
G1 X6.633 Y3.731
G1 X6.685 Y3.782
G1 X6.687 Y3.783
G1 X6.739 Y3.834
G1 X6.740 Y3.835
G1 X6.792 Y3.885
G1 X6.793 Y3.886
G1 X6.845 Y3.935
G1 X6.846 Y3.936
G1 X6.897 Y3.985
G1 X6.948 Y4.032
G1 X6.997 Y4.078
G1 X7.045 Y4.123
G1 X7.092 Y4.166
G1 X7.137 Y4.207
G1 X7.181 Y4.247
G1 X7.222 Y4.284
G1 X7.262 Y4.320
G1 X7.299 Y4.353
G1 X7.333 Y4.383
G1 X7.363 Y4.410
G1 X7.390 Y4.433
G1 X7.412 Y4.452
G1 X7.429 Y4.467
G1 X7.440 Y4.476
G1 X7.447 Y4.481
G1 X7.450 Y4.483
G1 X7.450 Y4.484
G1 X7.451 Y4.486
G1 X7.456 Y4.493
G1 X7.466 Y4.505
G1 X7.480 Y4.522
G1 X7.499 Y4.544
G1 X7.522 Y4.571
G1 X7.548 Y4.602
G1 X7.578 Y4.636
G1 X7.611 Y4.674
G1 X7.645 Y4.713
G1 X7.646 Y4.714
G1 X7.681 Y4.753
G1 X7.683 Y4.756
G1 X7.719 Y4.796
G1 X7.722 Y4.800
G1 X7.759 Y4.841
G1 X7.763 Y4.845
G1 X7.800 Y4.887
G1 X7.806 Y4.893
G1 X7.843 Y4.935
G1 X7.850 Y4.941
G1 X7.888 Y4.984
G1 X7.895 Y4.991
G1 X7.934 Y5.034
G1 X7.942 Y5.042
G1 X7.982 Y5.085
G1 X7.990 Y5.095
G1 X8.030 Y5.137
G1 X8.039 Y5.147
G1 X8.079 Y5.190
G1 X8.090 Y5.201
G1 X8.130 Y5.243
G1 X8.141 Y5.255
G1 X8.181 Y5.297
G1 X8.192 Y5.309
G1 X8.233 Y5.351
G1 X8.244 Y5.364
G1 X8.285 Y5.406
G1 X8.296 Y5.418
G1 X8.337 Y5.460
G1 X8.349 Y5.472
G1 X8.389 Y5.514
G1 X8.401 Y5.526
G1 X8.442 Y5.567
G1 X8.453 Y5.579
G1 X8.494 Y5.620
G1 X8.505 Y5.631
G1 X8.546 Y5.672
G1 X8.558 Y5.683
G1 X8.599 Y5.724
G1 X8.610 Y5.735
G1 X8.651 Y5.775
G1 X8.662 Y5.786
G1 X8.704 Y5.827
G1 X8.715 Y5.838
G1 X8.757 Y5.878
G1 X8.769 Y5.890
G1 X8.811 Y5.930
G1 X8.825 Y5.943
G1 X8.867 Y5.983
G1 X8.883 Y5.998
G1 X8.925 Y6.038
G1 X8.943 Y6.055
G1 X8.986 Y6.096
G1 X9.007 Y6.116
G1 X9.051 Y6.157
G1 X9.076 Y6.180
G1 X9.121 Y6.224
G1 X9.149 Y6.250
G1 X9.197 Y6.296
G1 X9.228 Y6.326
G1 X9.279 Y6.374
G1 X9.314 Y6.408
G1 X9.367 Y6.459
G1 X9.406 Y6.497
G1 X9.461 Y6.551
G1 X9.503 Y6.591
G1 X9.561 Y6.648
G1 X9.604 Y6.691
G1 X9.663 Y6.750
G1 X9.706 Y6.792
G1 X9.765 Y6.852
G1 X9.806 Y6.893
G1 X9.864 Y6.952
G1 X9.902 Y6.990
G1 X9.957 Y7.047
G1 X9.990 Y7.081
G1 X10.041 Y7.134
G1 X10.068 Y7.162
G1 X10.115 Y7.211
G1 X10.136 Y7.234
G1 X10.178 Y7.279
G1 X10.194 Y7.296
G1 X10.231 Y7.336
G1 X10.242 Y7.349
G1 X10.273 Y7.384
G1 X10.280 Y7.392
G1 X10.307 Y7.423
G1 X10.310 Y7.427
G1 X10.333 Y7.454
G1 X10.334 Y7.455
G1 X10.351 Y7.476
G1 X10.363 Y7.492
G1 X10.371 Y7.504
G1 X10.376 Y7.512
G1 X10.379 Y7.517
G1 X10.379 Y7.520
G1 X10.379 Y7.521
G1 X10.379 Y7.521
G1 X10.378 Y7.521
G1 X10.379 Y7.521
G1 X10.382 Y7.522
G1 X10.386 Y7.525
G1 X10.394 Y7.531
G1 X10.405 Y7.539
G1 X10.421 Y7.552
G1 X10.442 Y7.569
G1 X10.470 Y7.593
G1 X10.501 Y7.621
G1 X10.504 Y7.623
G1 X10.539 Y7.655
G1 X10.547 Y7.662
G1 X10.586 Y7.697
G1 X10.599 Y7.710
G1 X10.641 Y7.749
G1 X10.661 Y7.768
G1 X10.707 Y7.811
G1 X10.733 Y7.836
G1 X10.782 Y7.883
G1 X10.815 Y7.915
G1 X10.866 Y7.965
G1 X10.905 Y8.003
G1 X10.958 Y8.055
G1 X11.002 Y8.099
G1 X11.055 Y8.152
G1 X11.102 Y8.199
G1 X11.155 Y8.252
G1 X11.203 Y8.302
G1 X11.254 Y8.354
G1 X11.302 Y8.403
G1 X11.351 Y8.453
G1 X11.397 Y8.501
G1 X11.442 Y8.548
G1 X11.485 Y8.593
G1 X11.527 Y8.637
G1 X11.567 Y8.679
G1 X11.606 Y8.721
G1 X11.641 Y8.759
G1 X11.678 Y8.798
G1 X11.710 Y8.833
G1 X11.745 Y8.871
G1 X11.774 Y8.902
G1 X11.808 Y8.938
G1 X11.834 Y8.967
G1 X11.866 Y9.002
G1 X11.890 Y9.028
G1 X11.922 Y9.062
G1 X11.945 Y9.087
G1 X11.976 Y9.120
G1 X11.997 Y9.143
G1 X12.029 Y9.177
G1 X12.048 Y9.198
G1 X12.080 Y9.231
G1 X12.099 Y9.251
G1 X12.131 Y9.285
G1 X12.150 Y9.305
G1 X12.183 Y9.338
G1 X12.201 Y9.357
G1 X12.234 Y9.390
G1 X12.253 Y9.410
G1 X12.286 Y9.443
G1 X12.305 Y9.463
G1 X12.338 Y9.495
G1 X12.358 Y9.515
G1 X12.391 Y9.548
G1 X12.411 Y9.568
G1 X12.444 Y9.600
G1 X12.465 Y9.620
G1 X12.498 Y9.652
G1 X12.519 Y9.673
G1 X12.552 Y9.705
G1 X12.573 Y9.725
G1 X12.606 Y9.757
G1 X12.627 Y9.777
G1 X12.661 Y9.808
G1 X12.681 Y9.827
G1 X12.715 Y9.859
G1 X12.735 Y9.878
G1 X12.768 Y9.909
G1 X12.788 Y9.927
G1 X12.821 Y9.957
G1 X12.840 Y9.975
G1 X12.873 Y10.005
G1 X12.892 Y10.021
G1 X12.925 Y10.051
G1 X12.942 Y10.066
G1 X12.974 Y10.095
G1 X12.991 Y10.110
G1 X13.023 Y10.138
G1 X13.039 Y10.152
G1 X13.070 Y10.179
G1 X13.085 Y10.192
G1 X13.116 Y10.219
G1 X13.130 Y10.231
G1 X13.160 Y10.257
G1 X13.173 Y10.267
G1 X13.203 Y10.293
G1 X13.213 Y10.302
G1 X13.243 Y10.326
G1 X13.251 Y10.334
G1 X13.280 Y10.358
G1 X13.286 Y10.363
G1 X13.315 Y10.386
G1 X13.318 Y10.389
G1 X13.345 Y10.411
G1 X13.345 Y10.411
G1 X13.368 Y10.429
G1 X13.386 Y10.443
G1 X13.398 Y10.452
G1 X13.405 Y10.457
G1 X13.408 Y10.458
G1 X13.408 Y10.459
G1 X13.409 Y10.462
G1 X13.414 Y10.469
G1 X13.423 Y10.481
G1 X13.436 Y10.499
G1 X13.454 Y10.522
G1 X13.475 Y10.547
G1 X13.476 Y10.550
G1 X13.498 Y10.576
G1 X13.502 Y10.582
G1 X13.524 Y10.609
G1 X13.531 Y10.617
G1 X13.554 Y10.645
G1 X13.562 Y10.655
G1 X13.586 Y10.684
G1 X13.596 Y10.696
G1 X13.620 Y10.725
G1 X13.632 Y10.740
G1 X13.657 Y10.769
G1 X13.670 Y10.785
G1 X13.695 Y10.814
G1 X13.710 Y10.832
G1 X13.736 Y10.861
G1 X13.752 Y10.880
G1 X13.777 Y10.910
G1 X13.795 Y10.930
G1 X13.821 Y10.960
G1 X13.839 Y10.981
G1 X13.866 Y11.011
G1 X13.885 Y11.033
G1 X13.912 Y11.063
G1 X13.933 Y11.086
G1 X13.960 Y11.116
G1 X13.981 Y11.139
G1 X14.008 Y11.169
G1 X14.031 Y11.193
G1 X14.058 Y11.223
G1 X14.081 Y11.248
G1 X14.109 Y11.278
G1 X14.132 Y11.303
G1 X14.160 Y11.332
G1 X14.184 Y11.358
G1 X14.211 Y11.387
G1 X14.235 Y11.412
G1 X14.263 Y11.441
G1 X14.287 Y11.467
G1 X14.315 Y11.496
G1 X14.340 Y11.520
G1 X14.368 Y11.549
G1 X14.392 Y11.574
G1 X14.420 Y11.602
G1 X14.444 Y11.626
G1 X14.472 Y11.654
G1 X14.496 Y11.678
G1 X14.525 Y11.706
G1 X14.548 Y11.730
G1 X14.577 Y11.757
G1 X14.601 Y11.781
G1 X14.630 Y11.808
G1 X14.655 Y11.832
G1 X14.683 Y11.859
G1 X14.709 Y11.884
G1 X14.738 Y11.910
G1 X14.766 Y11.936
G1 X14.795 Y11.963
G1 X14.824 Y11.990
G1 X14.853 Y12.017
G1 X14.883 Y12.045
G1 X14.885 Y12.046
G1 X14.915 Y12.074
G1 X14.946 Y12.102
G1 X14.950 Y12.106
G1 X14.981 Y12.134
G1 X15.013 Y12.163
G1 X15.020 Y12.170
G1 X15.051 Y12.199
G1 X15.084 Y12.230
G1 X15.094 Y12.239
G1 X15.127 Y12.270
G1 X15.162 Y12.302
G1 X15.174 Y12.313
G1 X15.209 Y12.346
G1 X15.246 Y12.380
G1 X15.260 Y12.395
G1 X15.298 Y12.430
G1 X15.336 Y12.466
G1 X15.353 Y12.483
G1 X15.392 Y12.520
G1 X15.432 Y12.559
G1 X15.450 Y12.577
G1 X15.491 Y12.617
G1 X15.532 Y12.657
G1 X15.552 Y12.676
G1 X15.593 Y12.717
G1 X15.635 Y12.759
G1 X15.654 Y12.777
G1 X15.696 Y12.819
G1 X15.737 Y12.861
G1 X15.754 Y12.878
G1 X15.795 Y12.920
G1 X15.835 Y12.961
G1 X15.850 Y12.976
G1 X15.888 Y13.016
G1 X15.926 Y13.055
G1 X15.937 Y13.066
G1 X15.973 Y13.104
G1 X16.008 Y13.142
G1 X16.015 Y13.149
G1 X16.048 Y13.184
G1 X16.080 Y13.218
G1 X16.082 Y13.221
G1 X16.112 Y13.254
G1 X16.139 Y13.284
G1 X16.165 Y13.314
G1 X16.186 Y13.337
G1 X16.209 Y13.364
G1 X16.224 Y13.382
G1 X16.243 Y13.405
G1 X16.253 Y13.417
G1 X16.269 Y13.438
G1 X16.276 Y13.446
G1 X16.289 Y13.464
G1 X16.292 Y13.468
G1 X16.302 Y13.484
G1 X16.303 Y13.485
G1 X16.311 Y13.498
G1 X16.315 Y13.506
G1 X16.317 Y13.512
G1 X16.318 Y13.515
G1 X16.317 Y13.516
G1 X16.317 Y13.516
G1 X16.317 Y13.516
G1 X16.318 Y13.516
G1 X16.320 Y13.517
G1 X16.325 Y13.520
G1 X16.333 Y13.524
G1 X16.345 Y13.532
G1 X16.362 Y13.544
G1 X16.362 Y13.544
G1 X16.380 Y13.558
G1 X16.384 Y13.561
G1 X16.405 Y13.577
G1 X16.412 Y13.583
G1 X16.435 Y13.602
G1 X16.448 Y13.613
G1 X16.473 Y13.635
G1 X16.492 Y13.651
G1 X16.520 Y13.675
G1 X16.545 Y13.698
G1 X16.575 Y13.725
G1 X16.607 Y13.754
G1 X16.607 Y13.755
G1 X16.640 Y13.785
G1 X16.674 Y13.817
G1 X16.680 Y13.822
G1 X16.715 Y13.856
G1 X16.751 Y13.890
G1 X16.762 Y13.900
G1 X16.799 Y13.936
G1 X16.837 Y13.973
G1 X16.853 Y13.988
G1 X16.891 Y14.026
G1 X16.930 Y14.064
G1 X16.950 Y14.084
G1 X16.989 Y14.122
G1 X17.027 Y14.161
G1 X17.051 Y14.184
G1 X17.089 Y14.223
G1 X17.127 Y14.261
G1 X17.152 Y14.287
G1 X17.189 Y14.325
G1 X17.225 Y14.362
G1 X17.250 Y14.389
G1 X17.285 Y14.425
G1 X17.320 Y14.461
G1 X17.344 Y14.487
G1 X17.377 Y14.521
G1 X17.409 Y14.555
G1 X17.431 Y14.580
G1 X17.462 Y14.612
G1 X17.492 Y14.644
G1 X17.512 Y14.667
G1 X17.541 Y14.698
G1 X17.568 Y14.728
G1 X17.586 Y14.747
G1 X17.613 Y14.777
G1 X17.639 Y14.805
G1 X17.654 Y14.823
G1 X17.680 Y14.850
G1 X17.704 Y14.878
G1 X17.717 Y14.892
G1 X17.742 Y14.919
G1 X17.765 Y14.946
G1 X17.776 Y14.958
G1 X17.800 Y14.984
G1 X17.823 Y15.010
G1 X17.832 Y15.020
G1 X17.855 Y15.046
G1 X17.878 Y15.071
G1 X17.885 Y15.079
G1 X17.908 Y15.105
G1 X17.931 Y15.129
G1 X17.937 Y15.136
G1 X17.960 Y15.161
G1 X17.983 Y15.186
G1 X17.988 Y15.192
G1 X18.011 Y15.217
G1 X18.034 Y15.241
G1 X18.038 Y15.246
G1 X18.062 Y15.271
G1 X18.085 Y15.295
G1 X18.089 Y15.299
G1 X18.113 Y15.324
G1 X18.136 Y15.348
G1 X18.140 Y15.352
G1 X18.164 Y15.377
G1 X18.188 Y15.401
G1 X18.191 Y15.405
G1 X18.215 Y15.429
G1 X18.239 Y15.453
G1 X18.243 Y15.458
G1 X18.268 Y15.482
G1 X18.292 Y15.506
G1 X18.296 Y15.510
G1 X18.321 Y15.534
G1 X18.345 Y15.558
G1 X18.350 Y15.562
G1 X18.374 Y15.586
G1 X18.399 Y15.610
G1 X18.404 Y15.615
G1 X18.428 Y15.638
G1 X18.453 Y15.662
G1 X18.458 Y15.667
G1 X18.483 Y15.690
G1 X18.508 Y15.714
G1 X18.513 Y15.718
G1 X18.538 Y15.742
G1 X18.563 Y15.765
G1 X18.568 Y15.770
G1 X18.592 Y15.792
G1 X18.618 Y15.816
G1 X18.622 Y15.820
G1 X18.647 Y15.843
G1 X18.672 Y15.866
G1 X18.676 Y15.869
G1 X18.701 Y15.892
G1 X18.727 Y15.915
G1 X18.730 Y15.918
G1 X18.755 Y15.940
G1 X18.781 Y15.962
G1 X18.783 Y15.965
G1 X18.808 Y15.986
G1 X18.834 Y16.009
G1 X18.836 Y16.011
G1 X18.860 Y16.032
G1 X18.886 Y16.054
G1 X18.887 Y16.055
G1 X18.911 Y16.075
G1 X18.937 Y16.097
G1 X18.937 Y16.097
G1 X18.961 Y16.117
G1 X18.986 Y16.138
G1 X19.010 Y16.158
G1 X19.033 Y16.178
G1 X19.057 Y16.196
G1 X19.079 Y16.215
G1 X19.102 Y16.233
G1 X19.123 Y16.250
G1 X19.146 Y16.268
G1 X19.165 Y16.283
G1 X19.187 Y16.301
G1 X19.204 Y16.314
G1 X19.226 Y16.331
G1 X19.240 Y16.342
G1 X19.261 Y16.359
G1 X19.273 Y16.368
G1 X19.293 Y16.383
G1 X19.301 Y16.389
G1 X19.321 Y16.404
G1 X19.325 Y16.406
G1 X19.343 Y16.419
G1 X19.355 Y16.428
G1 X19.363 Y16.432
G1 X19.367 Y16.433
G1 X19.366 Y16.434
G1 X19.367 Y16.437
G1 X19.372 Y16.445
G1 X19.380 Y16.457
G1 X19.392 Y16.475
G1 X19.393 Y16.476
G1 X19.406 Y16.495
G1 X19.410 Y16.500
G1 X19.425 Y16.520
G1 X19.431 Y16.528
G1 X19.447 Y16.549
G1 X19.456 Y16.561
G1 X19.472 Y16.583
G1 X19.484 Y16.598
G1 X19.501 Y16.620
G1 X19.514 Y16.637
G1 X19.532 Y16.659
G1 X19.547 Y16.679
G1 X19.565 Y16.702
G1 X19.581 Y16.723
G1 X19.582 Y16.724
G1 X19.600 Y16.746
G1 X19.617 Y16.768
G1 X19.619 Y16.770
G1 X19.637 Y16.793
G1 X19.655 Y16.815
G1 X19.657 Y16.818
G1 X19.676 Y16.841
G1 X19.694 Y16.863
G1 X19.698 Y16.867
G1 X19.717 Y16.891
G1 X19.735 Y16.913
G1 X19.740 Y16.918
G1 X19.759 Y16.941
G1 X19.778 Y16.964
G1 X19.783 Y16.970
G1 X19.803 Y16.993
G1 X19.823 Y17.016
G1 X19.828 Y17.023
G1 X19.849 Y17.046
G1 X19.868 Y17.069
G1 X19.875 Y17.077
G1 X19.895 Y17.100
G1 X19.915 Y17.123
G1 X19.923 Y17.131
G1 X19.943 Y17.154
G1 X19.964 Y17.177
G1 X19.971 Y17.186
G1 X19.992 Y17.209
G1 X20.013 Y17.232
G1 X20.021 Y17.241
G1 X20.042 Y17.264
G1 X20.063 Y17.287
G1 X20.072 Y17.297
G1 X20.093 Y17.319
G1 X20.113 Y17.342
G1 X20.123 Y17.352
G1 X20.144 Y17.374
G1 X20.165 Y17.397
G1 X20.174 Y17.407
G1 X20.195 Y17.429
G1 X20.216 Y17.451
G1 X20.226 Y17.461
G1 X20.247 Y17.484
G1 X20.268 Y17.506
G1 X20.278 Y17.515
G1 X20.299 Y17.537
G1 X20.321 Y17.559
G1 X20.330 Y17.569
G1 X20.352 Y17.590
G1 X20.373 Y17.612
G1 X20.382 Y17.621
G1 X20.404 Y17.643
G1 X20.426 Y17.664
G1 X20.434 Y17.673
G1 X20.456 Y17.694
G1 X20.478 Y17.716
G1 X20.487 Y17.724
G1 X20.509 Y17.745
G1 X20.531 Y17.766
G1 X20.540 Y17.775
G1 X20.562 Y17.796
G1 X20.584 Y17.817
G1 X20.594 Y17.826
G1 X20.616 Y17.846
G1 X20.639 Y17.867
G1 X20.649 Y17.877
G1 X20.672 Y17.897
G1 X20.694 Y17.917
G1 X20.706 Y17.929
G1 X20.729 Y17.949
G1 X20.751 Y17.969
G1 X20.765 Y17.982
G1 X20.788 Y18.002
G1 X20.811 Y18.023
G1 X20.828 Y18.038
G1 X20.851 Y18.058
G1 X20.874 Y18.079
G1 X20.893 Y18.096
G1 X20.917 Y18.117
G1 X20.941 Y18.139
G1 X20.963 Y18.159
G1 X20.988 Y18.181
G1 X21.013 Y18.204
G1 X21.039 Y18.227
G1 X21.065 Y18.250
G1 X21.091 Y18.274
G1 X21.118 Y18.299
G1 X21.120 Y18.301
G1 X21.147 Y18.326
G1 X21.175 Y18.352
G1 X21.203 Y18.378
G1 X21.207 Y18.381
G1 X21.236 Y18.408
G1 X21.265 Y18.436
G1 X21.295 Y18.464
G1 X21.300 Y18.469
G1 X21.330 Y18.497
G1 X21.361 Y18.527
G1 X21.392 Y18.556
G1 X21.398 Y18.563
G1 X21.430 Y18.593
G1 X21.461 Y18.624
G1 X21.493 Y18.655
G1 X21.500 Y18.661
G1 X21.532 Y18.693
G1 X21.564 Y18.725
G1 X21.596 Y18.757
G1 X21.602 Y18.762
G1 X21.634 Y18.795
G1 X21.667 Y18.827
G1 X21.698 Y18.859
G1 X21.703 Y18.863
G1 X21.734 Y18.896
G1 X21.765 Y18.927
G1 X21.796 Y18.959
G1 X21.798 Y18.961
G1 X21.828 Y18.992
G1 X21.857 Y19.023
G1 X21.885 Y19.052
G1 X21.913 Y19.082
G1 X21.940 Y19.111
G1 X21.962 Y19.135
G1 X21.987 Y19.163
G1 X22.012 Y19.190
G1 X22.029 Y19.209
G1 X22.051 Y19.234
G1 X22.073 Y19.259
G1 X22.085 Y19.272
G1 X22.105 Y19.295
G1 X22.124 Y19.318
G1 X22.131 Y19.326
G1 X22.148 Y19.347
G1 X22.164 Y19.367
G1 X22.167 Y19.371
G1 X22.182 Y19.390
G1 X22.196 Y19.408
G1 X22.196 Y19.408
G1 X22.208 Y19.425
G1 X22.217 Y19.438
G1 X22.227 Y19.452
G1 X22.233 Y19.461
G1 X22.241 Y19.473
G1 X22.244 Y19.478
G1 X22.249 Y19.489
G1 X22.250 Y19.491
G1 X22.254 Y19.500
G1 X22.254 Y19.500
G1 X22.256 Y19.506
G1 X22.256 Y19.510
G1 X22.256 Y19.511
G1 X22.255 Y19.512
G1 X22.255 Y19.511
G1 X22.256 Y19.511
G1 X22.259 Y19.512
G1 X22.264 Y19.514
G1 X22.273 Y19.518
G1 X22.284 Y19.525
G1 X22.286 Y19.525
G1 X22.299 Y19.534
G1 X22.303 Y19.536
G1 X22.318 Y19.547
G1 X22.326 Y19.552
G1 X22.342 Y19.564
G1 X22.355 Y19.574
G1 X22.373 Y19.588
G1 X22.391 Y19.603
G1 X22.412 Y19.619
G1 X22.432 Y19.636
G1 X22.436 Y19.640
G1 X22.458 Y19.658
G1 X22.481 Y19.678
G1 X22.490 Y19.686
G1 X22.514 Y19.707
G1 X22.539 Y19.729
G1 X22.554 Y19.742
G1 X22.579 Y19.765
G1 X22.606 Y19.789
G1 X22.627 Y19.809
G1 X22.655 Y19.834
G1 X22.683 Y19.861
G1 X22.710 Y19.886
G1 X22.739 Y19.914
G1 X22.768 Y19.942
G1 X22.798 Y19.971
G1 X22.801 Y19.974
G1 X22.831 Y20.003
G1 X22.861 Y20.032
G1 X22.891 Y20.062
G1 X22.898 Y20.069
G1 X22.928 Y20.099
G1 X22.959 Y20.129
G1 X22.989 Y20.160
G1 X22.999 Y20.169
G1 X23.029 Y20.200
G1 X23.059 Y20.230
G1 X23.088 Y20.260
G1 X23.100 Y20.272
G1 X23.129 Y20.302
G1 X23.157 Y20.332
G1 X23.185 Y20.361
G1 X23.198 Y20.374
G1 X23.225 Y20.403
G1 X23.252 Y20.432
G1 X23.279 Y20.460
G1 X23.291 Y20.473
G1 X23.317 Y20.500
G1 X23.342 Y20.528
G1 X23.367 Y20.554
G1 X23.378 Y20.567
G1 X23.402 Y20.593
G1 X23.425 Y20.618
G1 X23.448 Y20.643
G1 X23.458 Y20.654
G1 X23.480 Y20.679
G1 X23.502 Y20.703
G1 X23.523 Y20.727
G1 X23.531 Y20.736
G1 X23.552 Y20.759
G1 X23.572 Y20.782
G1 X23.592 Y20.805
G1 X23.598 Y20.812
G1 X23.618 Y20.834
G1 X23.637 Y20.856
G1 X23.656 Y20.878
G1 X23.660 Y20.883
G1 X23.679 Y20.904
G1 X23.698 Y20.926
G1 X23.716 Y20.946
G1 X23.718 Y20.949
G1 X23.737 Y20.970
G1 X23.755 Y20.991
G1 X23.772 Y21.011
G1 X23.773 Y21.012
G1 X23.791 Y21.033
G1 X23.809 Y21.053
G1 X23.826 Y21.072
G1 X23.844 Y21.092
G1 X23.862 Y21.112
G1 X23.877 Y21.130
G1 X23.895 Y21.150
G1 X23.913 Y21.170
G1 X23.927 Y21.186
G1 X23.946 Y21.205
G1 X23.964 Y21.225
G1 X23.977 Y21.240
G1 X23.996 Y21.260
G1 X24.014 Y21.280
G1 X24.027 Y21.294
G1 X24.046 Y21.314
G1 X24.065 Y21.333
G1 X24.078 Y21.347
G1 X24.097 Y21.367
G1 X24.116 Y21.386
G1 X24.129 Y21.400
G1 X24.149 Y21.419
G1 X24.168 Y21.438
G1 X24.182 Y21.453
G1 X24.201 Y21.472
G1 X24.220 Y21.491
G1 X24.234 Y21.505
G1 X24.254 Y21.524
G1 X24.273 Y21.543
G1 X24.288 Y21.557
G1 X24.308 Y21.576
G1 X24.327 Y21.595
G1 X24.342 Y21.609
G1 X24.362 Y21.628
G1 X24.382 Y21.646
G1 X24.397 Y21.661
G1 X24.417 Y21.679
G1 X24.437 Y21.698
G1 X24.452 Y21.712
G1 X24.472 Y21.730
G1 X24.492 Y21.748
G1 X24.508 Y21.763
G1 X24.528 Y21.781
G1 X24.548 Y21.799
G1 X24.563 Y21.812
G1 X24.583 Y21.830
G1 X24.603 Y21.848
G1 X24.618 Y21.861
G1 X24.638 Y21.878
G1 X24.658 Y21.896
G1 X24.673 Y21.909
G1 X24.692 Y21.926
G1 X24.713 Y21.943
G1 X24.727 Y21.955
G1 X24.746 Y21.972
G1 X24.767 Y21.989
G1 X24.780 Y22.000
G1 X24.799 Y22.016
G1 X24.820 Y22.033
G1 X24.832 Y22.043
G1 X24.852 Y22.059
G1 X24.872 Y22.075
G1 X24.883 Y22.085
G1 X24.902 Y22.100
G1 X24.922 Y22.116
G1 X24.933 Y22.125
G1 X24.952 Y22.139
G1 X24.972 Y22.155
G1 X24.982 Y22.163
G1 X25.000 Y22.177
G1 X25.020 Y22.192
G1 X25.028 Y22.199
G1 X25.047 Y22.213
G1 X25.066 Y22.228
G1 X25.073 Y22.233
G1 X25.092 Y22.247
G1 X25.111 Y22.261
G1 X25.116 Y22.265
G1 X25.134 Y22.278
G1 X25.153 Y22.293
G1 X25.157 Y22.295
G1 X25.174 Y22.308
G1 X25.193 Y22.322
G1 X25.194 Y22.322
G1 X25.211 Y22.334
G1 X25.227 Y22.346
G1 X25.244 Y22.358
G1 X25.257 Y22.367
G1 X25.273 Y22.378
G1 X25.281 Y22.383
G1 X25.296 Y22.393
G1 X25.300 Y22.396
G1 X25.313 Y22.404
G1 X25.321 Y22.408
G1 X25.325 Y22.408
G1 X25.324 Y22.409
G1 X25.325 Y22.412
G1 X25.329 Y22.420
G1 X25.336 Y22.433
G1 X25.337 Y22.434
G1 X25.346 Y22.448
G1 X25.349 Y22.453
G1 X25.360 Y22.469
G1 X25.365 Y22.477
G1 X25.377 Y22.494
G1 X25.386 Y22.507
G1 X25.398 Y22.525
G1 X25.409 Y22.541
G1 X25.422 Y22.559
G1 X25.434 Y22.576
G1 X25.436 Y22.578
G1 X25.450 Y22.597
G1 X25.462 Y22.614
G1 X25.466 Y22.619
G1 X25.479 Y22.638
G1 X25.492 Y22.655
G1 X25.497 Y22.662
G1 X25.511 Y22.681
G1 X25.525 Y22.699
G1 X25.531 Y22.708
G1 X25.545 Y22.727
G1 X25.559 Y22.745
G1 X25.567 Y22.755
G1 X25.581 Y22.774
G1 X25.595 Y22.792
G1 X25.604 Y22.804
G1 X25.619 Y22.823
G1 X25.634 Y22.842
G1 X25.644 Y22.855
G1 X25.659 Y22.874
G1 X25.674 Y22.892
G1 X25.685 Y22.906
G1 X25.700 Y22.926
G1 X25.715 Y22.944
G1 X25.727 Y22.959
G1 X25.743 Y22.979
G1 X25.759 Y22.997
G1 X25.772 Y23.013
G1 X25.788 Y23.032
G1 X25.803 Y23.051
G1 X25.817 Y23.068
G1 X25.834 Y23.087
G1 X25.850 Y23.106
G1 X25.864 Y23.123
G1 X25.881 Y23.142
G1 X25.897 Y23.161
G1 X25.912 Y23.178
G1 X25.929 Y23.197
G1 X25.945 Y23.216
G1 X25.961 Y23.234
G1 X25.961 Y23.234
G1 X25.978 Y23.253
G1 X25.995 Y23.272
G1 X26.011 Y23.290
G1 X26.011 Y23.290
G1 X26.028 Y23.309
G1 X26.045 Y23.327
G1 X26.061 Y23.345
G1 X26.062 Y23.346
G1 X26.079 Y23.364
G1 X26.096 Y23.383
G1 X26.112 Y23.401
G1 X26.113 Y23.401
G1 X26.130 Y23.420
G1 X26.147 Y23.438
G1 X26.164 Y23.456
G1 X26.164 Y23.456
G1 X26.182 Y23.474
G1 X26.199 Y23.492
G1 X26.216 Y23.510
G1 X26.216 Y23.510
G1 X26.234 Y23.528
G1 X26.251 Y23.546
G1 X26.268 Y23.564
G1 X26.268 Y23.564
G1 X26.286 Y23.581
G1 X26.303 Y23.599
G1 X26.320 Y23.616
G1 X26.338 Y23.634
G1 X26.355 Y23.651
G1 X26.373 Y23.668
G1 X26.390 Y23.685
G1 X26.408 Y23.702
G1 X26.426 Y23.719
G1 X26.443 Y23.736
G1 X26.461 Y23.753
G1 X26.479 Y23.770
G1 X26.497 Y23.786
G1 X26.515 Y23.803
G1 X26.533 Y23.820
G1 X26.533 Y23.820
G1 X26.551 Y23.836
G1 X26.570 Y23.853
G1 X26.588 Y23.869
G1 X26.589 Y23.870
G1 X26.607 Y23.886
G1 X26.626 Y23.903
G1 X26.644 Y23.919
G1 X26.647 Y23.922
G1 X26.665 Y23.937
G1 X26.683 Y23.954
G1 X26.702 Y23.970
G1 X26.707 Y23.974
G1 X26.725 Y23.990
G1 X26.744 Y24.006
G1 X26.763 Y24.023
G1 X26.770 Y24.029
G1 X26.788 Y24.045
G1 X26.808 Y24.062
G1 X26.827 Y24.079
G1 X26.836 Y24.087
G1 X26.856 Y24.104
G1 X26.875 Y24.121
G1 X26.895 Y24.138
G1 X26.907 Y24.149
G1 X26.927 Y24.166
G1 X26.948 Y24.184
G1 X26.969 Y24.203
G1 X26.983 Y24.216
G1 X27.005 Y24.234
G1 X27.026 Y24.253
G1 X27.048 Y24.273
G1 X27.065 Y24.289
G1 X27.088 Y24.309
G1 X27.110 Y24.329
G1 X27.133 Y24.350
G1 X27.153 Y24.368
G1 X27.177 Y24.390
G1 X27.201 Y24.412
G1 X27.225 Y24.434
G1 X27.247 Y24.455
G1 X27.272 Y24.478
G1 X27.297 Y24.501
G1 X27.322 Y24.525
G1 X27.346 Y24.548
G1 X27.371 Y24.573
G1 X27.397 Y24.597
G1 X27.423 Y24.623
G1 X27.448 Y24.646
G1 X27.474 Y24.672
G1 X27.500 Y24.698
G1 X27.527 Y24.724
G1 X27.550 Y24.747
G1 X27.577 Y24.774
G1 X27.603 Y24.800
G1 X27.629 Y24.826
G1 X27.651 Y24.848
G1 X27.676 Y24.875
G1 X27.702 Y24.901
G1 X27.727 Y24.927
G1 X27.745 Y24.946
G1 X27.770 Y24.972
G1 X27.794 Y24.997
G1 X27.817 Y25.022
G1 X27.832 Y25.038
G1 X27.855 Y25.062
G1 X27.877 Y25.087
G1 X27.899 Y25.110
G1 X27.909 Y25.122
G1 X27.929 Y25.144
G1 X27.949 Y25.167
G1 X27.969 Y25.189
G1 X27.975 Y25.196
G1 X27.993 Y25.217
G1 X28.011 Y25.238
G1 X28.028 Y25.258
G1 X28.030 Y25.260
G1 X28.046 Y25.280
G1 X28.061 Y25.298
G1 X28.075 Y25.315
G1 X28.089 Y25.333
G1 X28.102 Y25.350
G1 X28.111 Y25.361
G1 X28.122 Y25.377
G1 X28.133 Y25.392
G1 X28.138 Y25.399
G1 X28.148 Y25.413
G1 X28.157 Y25.426
G1 X28.159 Y25.429
G1 X28.167 Y25.442
G1 X28.174 Y25.453
G1 X28.180 Y25.464
G1 X28.184 Y25.472
G1 X28.188 Y25.481
G1 X28.190 Y25.485
G1 X28.193 Y25.493
G1 X28.193 Y25.495
G1 X28.194 Y25.501
G1 X28.194 Y25.505
G1 X28.194 Y25.507
G1 X28.193 Y25.507
G1 X28.193 Y25.507
G1 X28.194 Y25.506
G1 X28.197 Y25.507
G1 X28.203 Y25.508
G1 X28.212 Y25.512
G1 X28.212 Y25.512
G1 X28.222 Y25.517
G1 X28.226 Y25.518
G1 X28.237 Y25.525
G1 X28.244 Y25.529
G1 X28.256 Y25.537
G1 X28.267 Y25.544
G1 X28.281 Y25.553
G1 X28.295 Y25.563
G1 X28.297 Y25.565
G1 X28.313 Y25.576
G1 X28.328 Y25.588
G1 X28.335 Y25.593
G1 X28.352 Y25.606
G1 X28.369 Y25.619
G1 X28.381 Y25.629
G1 X28.399 Y25.644
G1 X28.418 Y25.659
G1 X28.435 Y25.674
G1 X28.455 Y25.691
G1 X28.476 Y25.708
G1 X28.496 Y25.726
G1 X28.500 Y25.729
G1 X28.521 Y25.748
G1 X28.543 Y25.767
G1 X28.565 Y25.787
G1 X28.574 Y25.795
G1 X28.597 Y25.816
G1 X28.620 Y25.837
G1 X28.643 Y25.859
G1 X28.657 Y25.872
G1 X28.681 Y25.895
G1 X28.705 Y25.918
G1 X28.730 Y25.941
G1 X28.749 Y25.959
G1 X28.774 Y25.983
G1 X28.798 Y26.007
G1 X28.823 Y26.031
G1 X28.846 Y26.054
G1 X28.871 Y26.079
G1 X28.896 Y26.104
G1 X28.921 Y26.129
G1 X28.946 Y26.154
G1 X28.947 Y26.155
G1 X28.972 Y26.180
G1 X28.996 Y26.204
G1 X29.021 Y26.229
G1 X29.045 Y26.254
G1 X29.048 Y26.257
G1 X29.072 Y26.282
G1 X29.095 Y26.307
G1 X29.118 Y26.331
G1 X29.141 Y26.355
G1 X29.146 Y26.360
G1 X29.168 Y26.384
G1 X29.190 Y26.408
G1 X29.212 Y26.431
G1 X29.234 Y26.454
G1 X29.238 Y26.459
G1 X29.259 Y26.482
G1 X29.280 Y26.505
G1 X29.300 Y26.527
G1 X29.320 Y26.549
G1 X29.324 Y26.553
G1 X29.344 Y26.575
G1 X29.363 Y26.597
G1 X29.382 Y26.618
G1 X29.400 Y26.639
G1 X29.403 Y26.642
G1 X29.422 Y26.663
G1 X29.440 Y26.683
G1 X29.457 Y26.703
G1 X29.474 Y26.723
G1 X29.476 Y26.725
G1 X29.493 Y26.744
G1 X29.510 Y26.764
G1 X29.526 Y26.782
G1 X29.542 Y26.801
G1 X29.542 Y26.801
G1 X29.558 Y26.820
G1 X29.574 Y26.839
G1 X29.589 Y26.857
G1 X29.603 Y26.873
G1 X29.619 Y26.891
G1 X29.634 Y26.909
G1 X29.649 Y26.927
G1 X29.660 Y26.941
G1 X29.675 Y26.958
G1 X29.690 Y26.976
G1 X29.705 Y26.993
G1 X29.714 Y27.004
G1 X29.729 Y27.021
G1 X29.744 Y27.039
G1 X29.758 Y27.055
G1 X29.766 Y27.065
G1 X29.781 Y27.082
G1 X29.796 Y27.099
G1 X29.810 Y27.115
G1 X29.817 Y27.123
G1 X29.832 Y27.140
G1 X29.846 Y27.157
G1 X29.861 Y27.173
G1 X29.866 Y27.180
G1 X29.881 Y27.196
G1 X29.896 Y27.213
G1 X29.911 Y27.229
G1 X29.916 Y27.235
G1 X29.931 Y27.251
G1 X29.946 Y27.268
G1 X29.961 Y27.284
G1 X29.966 Y27.289
G1 X29.981 Y27.305
G1 X29.997 Y27.321
G1 X30.012 Y27.338
G1 X30.016 Y27.342
G1 X30.032 Y27.358
G1 X30.048 Y27.374
G1 X30.063 Y27.390
G1 X30.068 Y27.395
G1 X30.083 Y27.411
G1 X30.099 Y27.427
G1 X30.115 Y27.443
G1 X30.120 Y27.448
G1 X30.136 Y27.463
G1 X30.152 Y27.479
G1 X30.167 Y27.495
G1 X30.173 Y27.500
G1 X30.189 Y27.516
G1 X30.205 Y27.531
G1 X30.221 Y27.547
G1 X30.227 Y27.552
G1 X30.243 Y27.567
G1 X30.259 Y27.583
G1 X30.275 Y27.598
G1 X30.281 Y27.604
G1 X30.297 Y27.619
G1 X30.314 Y27.634
G1 X30.330 Y27.650
G1 X30.336 Y27.655
G1 X30.353 Y27.670
G1 X30.369 Y27.685
G1 X30.386 Y27.700
G1 X30.392 Y27.706
G1 X30.408 Y27.721
G1 X30.425 Y27.736
G1 X30.442 Y27.751
G1 X30.448 Y27.756
G1 X30.464 Y27.770
G1 X30.481 Y27.785
G1 X30.498 Y27.800
G1 X30.504 Y27.805
G1 X30.520 Y27.819
G1 X30.537 Y27.834
G1 X30.554 Y27.849
G1 X30.559 Y27.853
G1 X30.576 Y27.867
G1 X30.593 Y27.881
G1 X30.610 Y27.896
G1 X30.615 Y27.900
G1 X30.631 Y27.914
G1 X30.648 Y27.928
G1 X30.666 Y27.942
G1 X30.670 Y27.945
G1 X30.686 Y27.959
G1 X30.703 Y27.973
G1 X30.721 Y27.987
G1 X30.724 Y27.989
G1 X30.740 Y28.002
G1 X30.757 Y28.016
G1 X30.775 Y28.030
G1 X30.777 Y28.032
G1 X30.793 Y28.044
G1 X30.810 Y28.057
G1 X30.828 Y28.071
G1 X30.829 Y28.072
G1 X30.845 Y28.084
G1 X30.862 Y28.097
G1 X30.879 Y28.110
G1 X30.880 Y28.111
G1 X30.896 Y28.123
G1 X30.913 Y28.135
G1 X30.930 Y28.148
G1 X30.946 Y28.159
G1 X30.962 Y28.171
G1 X30.978 Y28.183
G1 X30.993 Y28.194
G1 X31.010 Y28.206
G1 X31.024 Y28.216
G1 X31.039 Y28.227
G1 X31.055 Y28.238
G1 X31.068 Y28.247
G1 X31.083 Y28.257
G1 X31.099 Y28.269
G1 X31.109 Y28.276
G1 X31.124 Y28.286
G1 X31.140 Y28.297
G1 X31.147 Y28.302
G1 X31.162 Y28.311
G1 X31.178 Y28.322
G1 X31.182 Y28.325
G1 X31.196 Y28.334
G1 X31.211 Y28.344
G1 X31.212 Y28.345
G1 X31.226 Y28.353
G1 X31.237 Y28.360
G1 X31.250 Y28.368
G1 X31.257 Y28.372
G1 X31.268 Y28.378
G1 X31.271 Y28.379
G1 X31.279 Y28.383
G1 X31.283 Y28.383
G1 X31.283 Y28.384
G1 X31.283 Y28.388
G1 X31.287 Y28.396
G1 X31.292 Y28.407
G1 X31.294 Y28.410
G1 X31.301 Y28.423
G1 X31.305 Y28.430
G1 X31.314 Y28.444
G1 X31.321 Y28.455
G1 X31.330 Y28.470
G1 X31.339 Y28.484
G1 X31.340 Y28.486
G1 X31.350 Y28.501
G1 X31.360 Y28.515
G1 X31.363 Y28.521
G1 X31.374 Y28.536
G1 X31.383 Y28.551
G1 X31.389 Y28.559
G1 X31.400 Y28.575
G1 X31.410 Y28.590
G1 X31.417 Y28.601
G1 X31.428 Y28.617
G1 X31.439 Y28.632
G1 X31.448 Y28.645
G1 X31.459 Y28.661
G1 X31.470 Y28.677
G1 X31.480 Y28.692
G1 X31.480 Y28.692
G1 X31.492 Y28.708
G1 X31.503 Y28.724
G1 X31.514 Y28.739
G1 X31.515 Y28.740
G1 X31.527 Y28.757
G1 X31.538 Y28.772
G1 X31.549 Y28.788
G1 X31.551 Y28.790
G1 X31.564 Y28.807
G1 X31.576 Y28.823
G1 X31.587 Y28.838
G1 X31.590 Y28.842
G1 X31.602 Y28.858
G1 X31.614 Y28.875
G1 X31.626 Y28.890
G1 X31.630 Y28.895
G1 X31.642 Y28.911
G1 X31.655 Y28.927
G1 X31.667 Y28.943
G1 X31.671 Y28.949
G1 X31.684 Y28.965
G1 X31.697 Y28.981
G1 X31.710 Y28.997
G1 X31.715 Y29.003
G1 X31.728 Y29.020
G1 X31.741 Y29.036
G1 X31.754 Y29.052
G1 X31.759 Y29.059
G1 X31.773 Y29.075
G1 X31.786 Y29.091
G1 X31.799 Y29.107
G1 X31.805 Y29.115
G1 X31.819 Y29.131
G1 X31.833 Y29.147
G1 X31.846 Y29.163
G1 X31.853 Y29.171
G1 X31.867 Y29.187
G1 X31.880 Y29.203
G1 X31.894 Y29.219
G1 X31.901 Y29.228
G1 X31.915 Y29.244
G1 X31.929 Y29.259
G1 X31.943 Y29.275
G1 X31.951 Y29.284
G1 X31.965 Y29.300
G1 X31.979 Y29.315
G1 X31.992 Y29.331
G1 X32.001 Y29.340
G1 X32.015 Y29.356
G1 X32.029 Y29.371
G1 X32.043 Y29.387
G1 X32.052 Y29.396
G1 X32.066 Y29.411
G1 X32.080 Y29.427
G1 X32.094 Y29.442
G1 X32.103 Y29.451
G1 X32.117 Y29.466
G1 X32.131 Y29.481
G1 X32.146 Y29.497
G1 X32.154 Y29.506
G1 X32.169 Y29.521
G1 X32.183 Y29.535
G1 X32.198 Y29.550
G1 X32.206 Y29.559
G1 X32.221 Y29.574
G1 X32.235 Y29.589
G1 X32.250 Y29.603
G1 X32.258 Y29.612
G1 X32.273 Y29.626
G1 X32.288 Y29.641
G1 X32.303 Y29.655
G1 X32.311 Y29.663
G1 X32.326 Y29.678
G1 X32.341 Y29.692
G1 X32.356 Y29.706
G1 X32.364 Y29.714
G1 X32.379 Y29.728
G1 X32.394 Y29.742
G1 X32.409 Y29.756
G1 X32.418 Y29.764
G1 X32.433 Y29.778
G1 X32.448 Y29.792
G1 X32.463 Y29.806
G1 X32.473 Y29.814
G1 X32.488 Y29.828
G1 X32.503 Y29.841
G1 X32.519 Y29.855
G1 X32.529 Y29.864
G1 X32.544 Y29.877
G1 X32.560 Y29.891
G1 X32.575 Y29.904
G1 X32.587 Y29.915
G1 X32.603 Y29.928
G1 X32.618 Y29.941
G1 X32.634 Y29.955
G1 X32.648 Y29.966
G1 X32.664 Y29.980
G1 X32.679 Y29.993
G1 X32.696 Y30.007
G1 X32.712 Y30.020
G1 X32.728 Y30.034
G1 X32.744 Y30.047
G1 X32.760 Y30.061
G1 X32.777 Y30.076
G1 X32.779 Y30.077
G1 X32.796 Y30.091
G1 X32.812 Y30.105
G1 X32.829 Y30.120
G1 X32.847 Y30.134
G1 X32.851 Y30.138
G1 X32.868 Y30.153
G1 X32.886 Y30.168
G1 X32.903 Y30.183
G1 X32.921 Y30.198
G1 X32.928 Y30.204
G1 X32.946 Y30.220
G1 X32.964 Y30.235
G1 X32.983 Y30.252
G1 X33.001 Y30.268
G1 X33.011 Y30.276
G1 X33.030 Y30.293
G1 X33.049 Y30.310
G1 X33.068 Y30.327
G1 X33.088 Y30.345
G1 X33.100 Y30.355
G1 X33.120 Y30.373
G1 X33.140 Y30.391
G1 X33.160 Y30.410
G1 X33.181 Y30.429
G1 X33.194 Y30.441
G1 X33.215 Y30.460
G1 X33.236 Y30.480
G1 X33.257 Y30.500
G1 X33.279 Y30.520
G1 X33.294 Y30.534
G1 X33.315 Y30.554
G1 X33.337 Y30.575
G1 X33.359 Y30.596
G1 X33.381 Y30.617
G1 X33.396 Y30.632
G1 X33.418 Y30.653
G1 X33.440 Y30.675
G1 X33.462 Y30.697
G1 X33.485 Y30.719
G1 X33.499 Y30.733
G1 X33.521 Y30.755
G1 X33.543 Y30.777
G1 X33.565 Y30.799
G1 X33.587 Y30.821
G1 X33.599 Y30.834
G1 X33.620 Y30.856
G1 X33.642 Y30.878
G1 X33.663 Y30.900
G1 X33.684 Y30.922
G1 X33.693 Y30.932
G1 X33.714 Y30.953
G1 X33.734 Y30.975
G1 X33.754 Y30.996
G1 X33.774 Y31.018
G1 X33.780 Y31.024
G1 X33.799 Y31.045
G1 X33.817 Y31.065
G1 X33.836 Y31.086
G1 X33.854 Y31.106
G1 X33.856 Y31.108
G1 X33.873 Y31.128
G1 X33.890 Y31.147
G1 X33.906 Y31.166
G1 X33.921 Y31.183
G1 X33.936 Y31.201
G1 X33.951 Y31.219
G1 X33.966 Y31.237
G1 X33.975 Y31.248
G1 X33.989 Y31.265
G1 X34.001 Y31.281
G1 X34.014 Y31.297
G1 X34.019 Y31.304
G1 X34.031 Y31.319
G1 X34.042 Y31.334
G1 X34.052 Y31.349
G1 X34.054 Y31.351
G1 X34.064 Y31.365
G1 X34.073 Y31.378
G1 X34.081 Y31.390
G1 X34.089 Y31.402
G1 X34.096 Y31.414
G1 X34.101 Y31.421
G1 X34.107 Y31.432
G1 X34.113 Y31.442
G1 X34.115 Y31.446
G1 X34.119 Y31.455
G1 X34.124 Y31.465
G1 X34.124 Y31.465
G1 X34.127 Y31.473
G1 X34.129 Y31.479
G1 X34.131 Y31.486
G1 X34.132 Y31.489
G1 X34.133 Y31.495
G1 X34.133 Y31.496
G1 X34.132 Y31.500
G1 X34.131 Y31.502
G1 X34.131 Y31.502
G1 X34.131 Y31.502
G1 X34.132 Y31.502
G1 X34.136 Y31.502
G1 X34.142 Y31.503
G1 X34.150 Y31.505
G1 X34.152 Y31.506
G1 X34.160 Y31.509
G1 X34.166 Y31.512
G1 X34.175 Y31.517
G1 X34.185 Y31.521
G1 X34.195 Y31.528
G1 X34.206 Y31.534
G1 X34.209 Y31.536
G1 X34.221 Y31.543
G1 X34.233 Y31.551
G1 X34.240 Y31.556
G1 X34.253 Y31.565
G1 X34.267 Y31.574
G1 X34.278 Y31.583
G1 X34.293 Y31.593
G1 X34.307 Y31.604
G1 X34.322 Y31.616
G1 X34.325 Y31.618
G1 X34.341 Y31.630
G1 X34.357 Y31.643
G1 X34.373 Y31.656
G1 X34.381 Y31.662
G1 X34.398 Y31.676
G1 X34.415 Y31.690
G1 X34.433 Y31.705
G1 X34.446 Y31.716
G1 X34.464 Y31.732
G1 X34.483 Y31.748
G1 X34.502 Y31.765
G1 X34.521 Y31.782
G1 X34.540 Y31.799
G1 X34.560 Y31.817
G1 X34.580 Y31.835
G1 X34.600 Y31.854
G1 X34.605 Y31.858
G1 X34.625 Y31.877
G1 X34.646 Y31.896
G1 X34.667 Y31.916
G1 X34.687 Y31.936
G1 X34.697 Y31.944
G1 X34.718 Y31.965
G1 X34.739 Y31.985
G1 X34.760 Y32.006
G1 X34.781 Y32.026
G1 X34.794 Y32.039
G1 X34.816 Y32.060
G1 X34.837 Y32.081
G1 X34.858 Y32.102
G1 X34.879 Y32.124
G1 X34.895 Y32.140
G1 X34.916 Y32.161
G1 X34.937 Y32.182
G1 X34.958 Y32.203
G1 X34.978 Y32.225
G1 X34.996 Y32.243
G1 X35.016 Y32.264
G1 X35.036 Y32.285
G1 X35.056 Y32.306
G1 X35.075 Y32.326
G1 X35.093 Y32.346
G1 X35.112 Y32.366
G1 X35.131 Y32.386
G1 X35.150 Y32.407
G1 X35.168 Y32.427
G1 X35.185 Y32.445
G1 X35.203 Y32.465
G1 X35.221 Y32.484
G1 X35.238 Y32.504
G1 X35.255 Y32.523
G1 X35.271 Y32.540
G1 X35.287 Y32.559
G1 X35.304 Y32.578
G1 X35.320 Y32.596
G1 X35.335 Y32.614
G1 X35.349 Y32.630
G1 X35.364 Y32.648
G1 X35.380 Y32.665
G1 X35.394 Y32.682
G1 X35.409 Y32.699
G1 X35.420 Y32.713
G1 X35.435 Y32.730
G1 X35.449 Y32.747
G1 X35.463 Y32.763
G1 X35.476 Y32.780
G1 X35.486 Y32.791
G1 X35.499 Y32.807
G1 X35.513 Y32.823
G1 X35.526 Y32.839
G1 X35.539 Y32.855
G1 X35.546 Y32.864
G1 X35.559 Y32.879
G1 X35.572 Y32.895
G1 X35.584 Y32.910
G1 X35.597 Y32.925
G1 X35.602 Y32.932
G1 X35.615 Y32.947
G1 X35.627 Y32.962
G1 X35.640 Y32.977
G1 X35.651 Y32.992
G1 X35.655 Y32.997
G1 X35.668 Y33.011
G1 X35.680 Y33.026
G1 X35.692 Y33.041
G1 X35.704 Y33.055
G1 X35.706 Y33.058
G1 X35.719 Y33.073
G1 X35.731 Y33.087
G1 X35.743 Y33.101
G1 X35.755 Y33.116
G1 X35.756 Y33.117
G1 X35.769 Y33.131
G1 X35.781 Y33.146
G1 X35.794 Y33.160
G1 X35.805 Y33.174
G1 X35.818 Y33.188
G1 X35.831 Y33.202
G1 X35.843 Y33.217
G1 X35.855 Y33.229
G1 X35.868 Y33.244
G1 X35.880 Y33.258
G1 X35.893 Y33.272
G1 X35.904 Y33.284
G1 X35.917 Y33.298
G1 X35.930 Y33.312
G1 X35.943 Y33.326
G1 X35.954 Y33.338
G1 X35.968 Y33.351
G1 X35.981 Y33.365
G1 X35.994 Y33.379
G1 X36.006 Y33.391
G1 X36.019 Y33.404
G1 X36.032 Y33.418
G1 X36.046 Y33.431
G1 X36.058 Y33.443
G1 X36.071 Y33.457
G1 X36.085 Y33.470
G1 X36.098 Y33.483
G1 X36.111 Y33.495
G1 X36.124 Y33.509
G1 X36.138 Y33.522
G1 X36.152 Y33.535
G1 X36.165 Y33.547
G1 X36.179 Y33.560
G1 X36.193 Y33.573
G1 X36.206 Y33.586
G1 X36.220 Y33.599
G1 X36.234 Y33.611
G1 X36.248 Y33.624
G1 X36.262 Y33.637
G1 X36.275 Y33.650
G1 X36.289 Y33.662
G1 X36.303 Y33.675
G1 X36.318 Y33.688
G1 X36.331 Y33.700
G1 X36.346 Y33.712
G1 X36.360 Y33.725
G1 X36.374 Y33.737
G1 X36.388 Y33.749
G1 X36.402 Y33.762
G1 X36.416 Y33.774
G1 X36.431 Y33.786
G1 X36.444 Y33.798
G1 X36.459 Y33.810
G1 X36.473 Y33.822
G1 X36.488 Y33.834
G1 X36.501 Y33.845
G1 X36.515 Y33.857
G1 X36.530 Y33.869
G1 X36.545 Y33.881
G1 X36.557 Y33.891
G1 X36.571 Y33.903
G1 X36.586 Y33.914
G1 X36.601 Y33.926
G1 X36.613 Y33.936
G1 X36.627 Y33.947
G1 X36.642 Y33.958
G1 X36.657 Y33.970
G1 X36.668 Y33.979
G1 X36.682 Y33.990
G1 X36.697 Y34.001
G1 X36.712 Y34.012
G1 X36.722 Y34.020
G1 X36.736 Y34.030
G1 X36.751 Y34.041
G1 X36.766 Y34.052
G1 X36.775 Y34.060
G1 X36.789 Y34.070
G1 X36.804 Y34.080
G1 X36.819 Y34.091
G1 X36.827 Y34.097
G1 X36.841 Y34.107
G1 X36.856 Y34.117
G1 X36.870 Y34.128
G1 X36.878 Y34.133
G1 X36.892 Y34.142
G1 X36.906 Y34.152
G1 X36.921 Y34.163
G1 X36.927 Y34.167
G1 X36.941 Y34.176
G1 X36.955 Y34.186
G1 X36.969 Y34.196
G1 X36.974 Y34.199
G1 X36.988 Y34.208
G1 X37.002 Y34.217
G1 X37.016 Y34.227
G1 X37.019 Y34.229
G1 X37.033 Y34.237
G1 X37.046 Y34.246
G1 X37.061 Y34.256
G1 X37.062 Y34.256
G1 X37.075 Y34.265
G1 X37.089 Y34.273
G1 X37.101 Y34.281
G1 X37.114 Y34.289
G1 X37.127 Y34.298
G1 X37.137 Y34.304
G1 X37.149 Y34.311
G1 X37.162 Y34.319
G1 X37.168 Y34.322
G1 X37.180 Y34.329
G1 X37.192 Y34.337
G1 X37.194 Y34.337
G1 X37.205 Y34.343
G1 X37.214 Y34.348
G1 X37.224 Y34.353
G1 X37.228 Y34.355
G1 X37.237 Y34.358
G1 X37.237 Y34.358
G1 X37.241 Y34.359
G1 X37.241 Y34.359
G1 X37.241 Y34.363
G1 X37.244 Y34.371
G1 X37.244 Y34.372
G1 X37.249 Y34.382
G1 X37.251 Y34.386
G1 X37.257 Y34.398
G1 X37.262 Y34.407
G1 X37.269 Y34.419
G1 X37.275 Y34.431
G1 X37.276 Y34.433
G1 X37.284 Y34.446
G1 X37.292 Y34.458
G1 X37.295 Y34.464
G1 X37.303 Y34.478
G1 X37.311 Y34.491
G1 X37.317 Y34.500
G1 X37.326 Y34.514
G1 X37.334 Y34.527
G1 X37.341 Y34.540
G1 X37.341 Y34.540
G1 X37.350 Y34.554
G1 X37.359 Y34.567
G1 X37.367 Y34.580
G1 X37.369 Y34.583
G1 X37.378 Y34.597
G1 X37.387 Y34.610
G1 X37.395 Y34.624
G1 X37.398 Y34.628
G1 X37.408 Y34.642
G1 X37.417 Y34.656
G1 X37.425 Y34.669
G1 X37.430 Y34.676
G1 X37.439 Y34.690
G1 X37.449 Y34.704
G1 X37.458 Y34.718
G1 X37.463 Y34.726
G1 X37.473 Y34.740
G1 X37.483 Y34.754
G1 X37.492 Y34.768
G1 X37.498 Y34.777
G1 X37.509 Y34.791
G1 X37.519 Y34.805
G1 X37.528 Y34.819
G1 X37.535 Y34.829
G1 X37.546 Y34.844
G1 X37.556 Y34.858
G1 X37.566 Y34.872
G1 X37.574 Y34.883
G1 X37.585 Y34.898
G1 X37.596 Y34.912
G1 X37.606 Y34.926
G1 X37.615 Y34.938
G1 X37.626 Y34.953
G1 X37.637 Y34.967
G1 X37.648 Y34.981
G1 X37.657 Y34.994
G1 X37.669 Y35.008
G1 X37.680 Y35.022
G1 X37.691 Y35.036
G1 X37.701 Y35.050
G1 X37.701 Y35.050
G1 X37.713 Y35.064
G1 X37.724 Y35.078
G1 X37.735 Y35.092
G1 X37.746 Y35.106
G1 X37.747 Y35.107
G1 X37.758 Y35.121
G1 X37.770 Y35.135
G1 X37.781 Y35.149
G1 X37.792 Y35.162
G1 X37.793 Y35.164
G1 X37.805 Y35.178
G1 X37.817 Y35.192
G1 X37.828 Y35.205
G1 X37.840 Y35.219
G1 X37.841 Y35.221
G1 X37.853 Y35.235
G1 X37.865 Y35.249
G1 X37.877 Y35.262
G1 X37.888 Y35.276
G1 X37.890 Y35.278
G1 X37.902 Y35.292
G1 X37.914 Y35.305
G1 X37.926 Y35.319
G1 X37.937 Y35.332
G1 X37.940 Y35.335
G1 X37.952 Y35.348
G1 X37.964 Y35.362
G1 X37.976 Y35.375
G1 X37.988 Y35.388
G1 X37.990 Y35.391
G1 X38.002 Y35.404
G1 X38.015 Y35.417
G1 X38.027 Y35.431
G1 X38.039 Y35.444
G1 X38.041 Y35.446
G1 X38.053 Y35.459
G1 X38.066 Y35.473
G1 X38.078 Y35.486
G1 X38.090 Y35.499
G1 X38.092 Y35.501
G1 X38.105 Y35.514
G1 X38.117 Y35.527
G1 X38.130 Y35.540
G1 X38.142 Y35.552
G1 X38.144 Y35.555
G1 X38.157 Y35.567
G1 X38.169 Y35.580
G1 X38.182 Y35.593
G1 X38.194 Y35.605
G1 X38.196 Y35.607
G1 X38.209 Y35.620
G1 X38.222 Y35.632
G1 X38.235 Y35.645
G1 X38.247 Y35.657
G1 X38.249 Y35.659
G1 X38.262 Y35.671
G1 X38.275 Y35.683
G1 X38.288 Y35.695
G1 X38.301 Y35.708
G1 X38.302 Y35.709
G1 X38.315 Y35.721
G1 X38.328 Y35.733
G1 X38.341 Y35.745
G1 X38.355 Y35.757
G1 X38.356 Y35.759
G1 X38.369 Y35.771
G1 X38.383 Y35.782
G1 X38.396 Y35.794
G1 X38.409 Y35.806
G1 X38.412 Y35.808
G1 X38.425 Y35.820
G1 X38.438 Y35.831
G1 X38.452 Y35.843
G1 X38.465 Y35.855
G1 X38.469 Y35.858
G1 X38.482 Y35.869
G1 X38.495 Y35.880
G1 X38.509 Y35.892
G1 X38.523 Y35.904
G1 X38.527 Y35.908
G1 X38.541 Y35.919
G1 X38.555 Y35.930
G1 X38.568 Y35.941
G1 X38.582 Y35.953
G1 X38.589 Y35.959
G1 X38.603 Y35.970
G1 X38.616 Y35.981
G1 X38.630 Y35.993
G1 X38.645 Y36.004
G1 X38.653 Y36.012
G1 X38.667 Y36.023
G1 X38.682 Y36.035
G1 X38.696 Y36.046
G1 X38.710 Y36.058
G1 X38.722 Y36.068
G1 X38.736 Y36.080
G1 X38.751 Y36.091
G1 X38.766 Y36.104
G1 X38.781 Y36.116
G1 X38.795 Y36.128
G1 X38.810 Y36.140
G1 X38.825 Y36.153
G1 X38.840 Y36.166
G1 X38.856 Y36.179
G1 X38.871 Y36.192
G1 X38.873 Y36.193
G1 X38.888 Y36.206
G1 X38.904 Y36.219
G1 X38.920 Y36.233
G1 X38.936 Y36.247
G1 X38.953 Y36.261
G1 X38.956 Y36.264
G1 X38.973 Y36.278
G1 X38.989 Y36.293
G1 X39.006 Y36.307
G1 X39.023 Y36.322
G1 X39.040 Y36.337
G1 X39.046 Y36.342
G1 X39.063 Y36.358
G1 X39.081 Y36.373
G1 X39.098 Y36.389
G1 X39.116 Y36.405
G1 X39.134 Y36.421
G1 X39.141 Y36.428
G1 X39.159 Y36.444
G1 X39.178 Y36.461
G1 X39.196 Y36.478
G1 X39.215 Y36.495
G1 X39.233 Y36.512
G1 X39.241 Y36.520
G1 X39.260 Y36.537
G1 X39.279 Y36.555
G1 X39.298 Y36.573
G1 X39.317 Y36.591
G1 X39.336 Y36.609
G1 X39.344 Y36.617
G1 X39.363 Y36.636
G1 X39.382 Y36.654
G1 X39.401 Y36.673
G1 X39.421 Y36.692
G1 X39.440 Y36.711
G1 X39.447 Y36.718
G1 X39.466 Y36.737
G1 X39.485 Y36.756
G1 X39.504 Y36.775
G1 X39.523 Y36.794
G1 X39.542 Y36.814
G1 X39.547 Y36.819
G1 X39.566 Y36.838
G1 X39.584 Y36.857
G1 X39.603 Y36.876
G1 X39.621 Y36.895
G1 X39.639 Y36.914
G1 X39.641 Y36.917
G1 X39.659 Y36.936
G1 X39.676 Y36.955
G1 X39.694 Y36.973
G1 X39.711 Y36.992
G1 X39.727 Y37.010
G1 X39.743 Y37.028
G1 X39.759 Y37.046
G1 X39.775 Y37.064
G1 X39.791 Y37.081
G1 X39.802 Y37.095
G1 X39.817 Y37.112
G1 X39.832 Y37.129
G1 X39.846 Y37.145
G1 X39.860 Y37.162
G1 X39.867 Y37.170
G1 X39.880 Y37.186
G1 X39.893 Y37.202
G1 X39.905 Y37.217
G1 X39.917 Y37.233
G1 X39.920 Y37.237
G1 X39.932 Y37.251
G1 X39.943 Y37.266
G1 X39.953 Y37.280
G1 X39.964 Y37.293
G1 X39.973 Y37.307
G1 X39.983 Y37.320
G1 X39.992 Y37.333
G1 X39.998 Y37.341
G1 X40.006 Y37.353
G1 X40.013 Y37.365
G1 X40.021 Y37.377
G1 X40.023 Y37.381
G1 X40.030 Y37.391
G1 X40.036 Y37.402
G1 X40.042 Y37.413
G1 X40.042 Y37.413
G1 X40.047 Y37.422
G1 X40.052 Y37.432
G1 X40.055 Y37.438
G1 X40.059 Y37.447
G1 X40.063 Y37.456
G1 X40.064 Y37.458
G1 X40.066 Y37.466
G1 X40.069 Y37.473
G1 X40.070 Y37.480
G1 X40.071 Y37.484
G1 X40.071 Y37.490
G1 X40.071 Y37.491
G1 X40.070 Y37.496
G1 X40.069 Y37.498
G1 X40.068 Y37.498
G1 X40.068 Y37.498
G1 X40.070 Y37.497
G1 X40.074 Y37.497
G1 X40.080 Y37.497
G1 X40.081 Y37.497
G1 X40.088 Y37.499
G1 X40.091 Y37.500
G1 X40.099 Y37.503
G1 X40.106 Y37.505
G1 X40.114 Y37.509
G1 X40.123 Y37.513
G1 X40.125 Y37.514
G1 X40.135 Y37.519
G1 X40.145 Y37.524
G1 X40.150 Y37.527
G1 X40.161 Y37.534
G1 X40.172 Y37.540
G1 X40.182 Y37.547
G1 X40.194 Y37.554
G1 X40.206 Y37.562
G1 X40.218 Y37.570
G1 X40.222 Y37.573
G1 X40.234 Y37.582
G1 X40.247 Y37.591
G1 X40.261 Y37.600
G1 X40.269 Y37.607
G1 X40.283 Y37.617
G1 X40.297 Y37.628
G1 X40.311 Y37.639
G1 X40.326 Y37.650
G1 X40.341 Y37.662
G1 X40.356 Y37.674
G1 X40.371 Y37.687
G1 X40.387 Y37.700
G1 X40.392 Y37.704
G1 X40.408 Y37.717
G1 X40.424 Y37.731
G1 X40.441 Y37.745
G1 X40.457 Y37.759
G1 X40.467 Y37.768
G1 X40.484 Y37.783
G1 X40.502 Y37.799
G1 X40.519 Y37.814
G1 X40.537 Y37.830
G1 X40.552 Y37.844
G1 X40.570 Y37.860
G1 X40.588 Y37.877
G1 X40.606 Y37.894
G1 X40.624 Y37.911
G1 X40.642 Y37.928
G1 X40.645 Y37.930
G1 X40.663 Y37.947
G1 X40.681 Y37.965
G1 X40.700 Y37.983
G1 X40.718 Y38.001
G1 X40.737 Y38.019
G1 X40.743 Y38.024
G1 X40.761 Y38.043
G1 X40.780 Y38.061
G1 X40.798 Y38.079
G1 X40.816 Y38.098
G1 X40.835 Y38.116
G1 X40.843 Y38.125
G1 X40.862 Y38.143
G1 X40.880 Y38.162
G1 X40.898 Y38.180
G1 X40.916 Y38.199
G1 X40.933 Y38.217
G1 X40.944 Y38.228
G1 X40.961 Y38.247
G1 X40.979 Y38.265
G1 X40.996 Y38.283
G1 X41.013 Y38.301
G1 X41.030 Y38.319
G1 X41.041 Y38.331
G1 X41.057 Y38.349
G1 X41.074 Y38.367
G1 X41.090 Y38.385
G1 X41.106 Y38.402
G1 X41.122 Y38.420
G1 X41.132 Y38.432
G1 X41.148 Y38.449
G1 X41.163 Y38.466
G1 X41.178 Y38.483
G1 X41.193 Y38.500
G1 X41.207 Y38.516
G1 X41.217 Y38.527
G1 X41.231 Y38.544
G1 X41.245 Y38.560
G1 X41.259 Y38.576
G1 X41.273 Y38.592
G1 X41.286 Y38.608
G1 X41.294 Y38.618
G1 X41.308 Y38.633
G1 X41.321 Y38.649
G1 X41.334 Y38.664
G1 X41.346 Y38.679
G1 X41.359 Y38.694
G1 X41.365 Y38.702
G1 X41.377 Y38.717
G1 X41.390 Y38.732
G1 X41.402 Y38.746
G1 X41.413 Y38.761
G1 X41.425 Y38.775
G1 X41.429 Y38.781
G1 X41.441 Y38.795
G1 X41.453 Y38.809
G1 X41.464 Y38.823
G1 X41.475 Y38.837
G1 X41.486 Y38.851
G1 X41.489 Y38.854
G1 X41.500 Y38.868
G1 X41.511 Y38.882
G1 X41.522 Y38.895
G1 X41.532 Y38.909
G1 X41.543 Y38.922
G1 X41.544 Y38.924
G1 X41.555 Y38.937
G1 X41.566 Y38.950
G1 X41.576 Y38.963
G1 X41.587 Y38.976
G1 X41.596 Y38.989
G1 X41.607 Y39.002
G1 X41.618 Y39.015
G1 X41.628 Y39.028
G1 X41.638 Y39.041
G1 X41.647 Y39.051
G1 X41.657 Y39.064
G1 X41.668 Y39.077
G1 X41.678 Y39.089
G1 X41.689 Y39.102
G1 X41.696 Y39.111
G1 X41.707 Y39.123
G1 X41.717 Y39.136
G1 X41.728 Y39.149
G1 X41.738 Y39.161
G1 X41.744 Y39.168
G1 X41.755 Y39.181
G1 X41.766 Y39.193
G1 X41.777 Y39.206
G1 X41.788 Y39.218
G1 X41.793 Y39.224
G1 X41.804 Y39.237
G1 X41.815 Y39.249
G1 X41.827 Y39.261
G1 X41.837 Y39.274
G1 X41.842 Y39.279
G1 X41.854 Y39.291
G1 X41.865 Y39.303
G1 X41.876 Y39.316
G1 X41.888 Y39.328
G1 X41.892 Y39.333
G1 X41.904 Y39.345
G1 X41.915 Y39.357
G1 X41.927 Y39.369
G1 X41.938 Y39.381
G1 X41.943 Y39.386
G1 X41.955 Y39.398
G1 X41.967 Y39.410
G1 X41.978 Y39.422
G1 X41.990 Y39.433
G1 X41.995 Y39.439
G1 X42.007 Y39.450
G1 X42.019 Y39.462
G1 X42.031 Y39.474
G1 X42.043 Y39.485
G1 X42.049 Y39.491
G1 X42.061 Y39.502
G1 X42.073 Y39.514
G1 X42.085 Y39.525
G1 X42.097 Y39.537
G1 X42.103 Y39.543
G1 X42.115 Y39.554
G1 X42.127 Y39.565
G1 X42.139 Y39.576
G1 X42.152 Y39.588
G1 X42.158 Y39.594
G1 X42.170 Y39.605
G1 X42.183 Y39.616
G1 X42.195 Y39.627
G1 X42.207 Y39.638
G1 X42.214 Y39.644
G1 X42.226 Y39.655
G1 X42.239 Y39.666
G1 X42.251 Y39.677
G1 X42.264 Y39.688
G1 X42.271 Y39.694
G1 X42.283 Y39.705
G1 X42.296 Y39.715
G1 X42.308 Y39.726
G1 X42.321 Y39.737
G1 X42.328 Y39.743
G1 X42.340 Y39.753
G1 X42.353 Y39.764
G1 X42.366 Y39.775
G1 X42.379 Y39.785
G1 X42.385 Y39.791
G1 X42.397 Y39.801
G1 X42.410 Y39.811
G1 X42.423 Y39.822
G1 X42.436 Y39.833
G1 X42.442 Y39.837
G1 X42.455 Y39.847
G1 X42.468 Y39.858
G1 X42.481 Y39.868
G1 X42.494 Y39.878
G1 X42.499 Y39.883
G1 X42.512 Y39.892
G1 X42.525 Y39.902
G1 X42.538 Y39.912
G1 X42.551 Y39.923
G1 X42.555 Y39.926
G1 X42.568 Y39.936
G1 X42.581 Y39.945
G1 X42.594 Y39.955
G1 X42.608 Y39.965
G1 X42.611 Y39.968
G1 X42.624 Y39.977
G1 X42.637 Y39.987
G1 X42.650 Y39.996
G1 X42.664 Y40.006
G1 X42.667 Y40.009
G1 X42.679 Y40.017
G1 X42.692 Y40.026
G1 X42.705 Y40.036
G1 X42.719 Y40.046
G1 X42.721 Y40.047
G1 X42.733 Y40.056
G1 X42.746 Y40.064
G1 X42.759 Y40.073
G1 X42.773 Y40.083
G1 X42.774 Y40.084
G1 X42.787 Y40.092
G1 X42.799 Y40.100
G1 X42.812 Y40.109
G1 X42.826 Y40.118
G1 X42.826 Y40.118
G1 X42.838 Y40.126
G1 X42.851 Y40.134
G1 X42.864 Y40.143
G1 X42.876 Y40.151
G1 X42.888 Y40.159
G1 X42.901 Y40.167
G1 X42.914 Y40.175
G1 X42.925 Y40.182
G1 X42.937 Y40.189
G1 X42.949 Y40.197
G1 X42.962 Y40.205
G1 X42.971 Y40.211
G1 X42.983 Y40.218
G1 X42.995 Y40.225
G1 X43.008 Y40.233
G1 X43.014 Y40.237
G1 X43.026 Y40.244
G1 X43.038 Y40.251
G1 X43.051 Y40.259
G1 X43.055 Y40.261
G1 X43.066 Y40.268
G1 X43.078 Y40.275
G1 X43.091 Y40.282
G1 X43.091 Y40.282
G1 X43.102 Y40.288
G1 X43.114 Y40.295
G1 X43.123 Y40.300
G1 X43.134 Y40.306
G1 X43.145 Y40.312
G1 X43.150 Y40.314
G1 X43.160 Y40.319
G1 X43.171 Y40.324
G1 X43.171 Y40.325
G1 X43.180 Y40.328
G1 X43.186 Y40.331
G1 X43.193 Y40.333
G1 X43.195 Y40.334
G1 X43.200 Y40.334
G1 X43.199 Y40.334
G1 X43.199 Y40.339
G1 X43.201 Y40.346
G1 X43.202 Y40.348
G1 X43.206 Y40.357
G1 X43.208 Y40.363
G1 X43.213 Y40.373
G1 X43.217 Y40.383
G1 X43.218 Y40.384
G1 X43.224 Y40.395
G1 X43.229 Y40.406
G1 X43.232 Y40.411
G1 X43.239 Y40.423
G1 X43.245 Y40.434
G1 X43.250 Y40.443
G1 X43.257 Y40.455
G1 X43.263 Y40.467
G1 X43.269 Y40.478
G1 X43.270 Y40.480
G1 X43.278 Y40.492
G1 X43.285 Y40.504
G1 X43.291 Y40.516
G1 X43.294 Y40.521
G1 X43.302 Y40.533
G1 X43.309 Y40.545
G1 X43.316 Y40.557
G1 X43.320 Y40.565
G1 X43.328 Y40.577
G1 X43.336 Y40.590
G1 X43.343 Y40.602
G1 X43.348 Y40.611
G1 X43.357 Y40.624
G1 X43.364 Y40.636
G1 X43.372 Y40.648
G1 X43.379 Y40.660
G1 X43.387 Y40.673
G1 X43.395 Y40.685
G1 X43.403 Y40.698
G1 X43.410 Y40.710
G1 X43.411 Y40.711
G1 X43.420 Y40.724
G1 X43.428 Y40.736
G1 X43.436 Y40.749
G1 X43.444 Y40.761
G1 X43.445 Y40.763
G1 X43.454 Y40.776
G1 X43.463 Y40.789
G1 X43.471 Y40.801
G1 X43.479 Y40.814
G1 X43.481 Y40.817
G1 X43.490 Y40.830
G1 X43.499 Y40.843
G1 X43.508 Y40.855
G1 X43.516 Y40.867
G1 X43.519 Y40.872
G1 X43.529 Y40.885
G1 X43.538 Y40.898
G1 X43.547 Y40.910
G1 X43.555 Y40.922
G1 X43.559 Y40.928
G1 X43.568 Y40.941
G1 X43.578 Y40.953
G1 X43.587 Y40.966
G1 X43.596 Y40.978
G1 X43.600 Y40.984
G1 X43.610 Y40.997
G1 X43.620 Y41.010
G1 X43.629 Y41.022
G1 X43.638 Y41.035
G1 X43.643 Y41.041
G1 X43.653 Y41.054
G1 X43.663 Y41.067
G1 X43.673 Y41.079
G1 X43.682 Y41.091
G1 X43.688 Y41.099
G1 X43.698 Y41.112
G1 X43.708 Y41.124
G1 X43.718 Y41.136
G1 X43.727 Y41.149
G1 X43.734 Y41.157
G1 X43.744 Y41.169
G1 X43.754 Y41.182
G1 X43.764 Y41.194
G1 X43.774 Y41.206
G1 X43.781 Y41.215
G1 X43.791 Y41.227
G1 X43.802 Y41.239
G1 X43.812 Y41.251
G1 X43.822 Y41.263
G1 X43.829 Y41.272
G1 X43.840 Y41.284
G1 X43.850 Y41.296
G1 X43.860 Y41.308
G1 X43.871 Y41.320
G1 X43.878 Y41.329
G1 X43.889 Y41.341
G1 X43.900 Y41.353
G1 X43.910 Y41.365
G1 X43.920 Y41.377
G1 X43.928 Y41.386
G1 X43.939 Y41.398
G1 X43.950 Y41.409
G1 X43.960 Y41.421
G1 X43.971 Y41.433
G1 X43.979 Y41.442
G1 X43.990 Y41.453
G1 X44.001 Y41.465
G1 X44.011 Y41.476
G1 X44.022 Y41.488
G1 X44.030 Y41.497
G1 X44.041 Y41.508
G1 X44.052 Y41.519
G1 X44.063 Y41.531
G1 X44.074 Y41.542
G1 X44.082 Y41.550
G1 X44.093 Y41.561
G1 X44.104 Y41.572
G1 X44.115 Y41.584
G1 X44.126 Y41.595
G1 X44.134 Y41.603
G1 X44.145 Y41.614
G1 X44.156 Y41.625
G1 X44.168 Y41.636
G1 X44.179 Y41.647
G1 X44.187 Y41.654
G1 X44.198 Y41.665
G1 X44.209 Y41.676
G1 X44.221 Y41.686
G1 X44.232 Y41.697
G1 X44.240 Y41.705
G1 X44.252 Y41.715
G1 X44.263 Y41.725
G1 X44.275 Y41.736
G1 X44.287 Y41.747
G1 X44.295 Y41.754
G1 X44.306 Y41.764
G1 X44.318 Y41.774
G1 X44.330 Y41.785
G1 X44.342 Y41.795
G1 X44.350 Y41.803
G1 X44.362 Y41.813
G1 X44.374 Y41.823
G1 X44.386 Y41.833
G1 X44.398 Y41.843
G1 X44.408 Y41.852
G1 X44.420 Y41.861
G1 X44.432 Y41.871
G1 X44.444 Y41.881
G1 X44.456 Y41.891
G1 X44.468 Y41.901
G1 X44.480 Y41.910
G1 X44.492 Y41.920
G1 X44.504 Y41.930
G1 X44.516 Y41.940
G1 X44.529 Y41.950
G1 X44.530 Y41.951
G1 X44.542 Y41.961
G1 X44.554 Y41.970
G1 X44.567 Y41.980
G1 X44.579 Y41.990
G1 X44.592 Y42.001
G1 X44.595 Y42.003
G1 X44.608 Y42.013
G1 X44.620 Y42.023
G1 X44.633 Y42.033
G1 X44.646 Y42.043
G1 X44.659 Y42.054
G1 X44.664 Y42.059
G1 X44.677 Y42.069
G1 X44.690 Y42.079
G1 X44.703 Y42.089
G1 X44.717 Y42.100
G1 X44.730 Y42.111
G1 X44.738 Y42.118
G1 X44.752 Y42.128
G1 X44.765 Y42.139
G1 X44.779 Y42.150
G1 X44.792 Y42.161
G1 X44.806 Y42.173
G1 X44.817 Y42.182
G1 X44.831 Y42.193
G1 X44.845 Y42.205
G1 X44.859 Y42.216
G1 X44.874 Y42.228
G1 X44.888 Y42.241
G1 X44.902 Y42.252
G1 X44.916 Y42.264
G1 X44.931 Y42.277
G1 X44.946 Y42.289
G1 X44.961 Y42.302
G1 X44.976 Y42.315
G1 X44.992 Y42.329
G1 X44.992 Y42.329
G1 X45.008 Y42.343
G1 X45.023 Y42.356
G1 X45.039 Y42.370
G1 X45.054 Y42.384
G1 X45.070 Y42.398
G1 X45.086 Y42.412
G1 X45.088 Y42.414
G1 X45.104 Y42.428
G1 X45.120 Y42.443
G1 X45.137 Y42.458
G1 X45.153 Y42.472
G1 X45.169 Y42.488
G1 X45.186 Y42.503
G1 X45.189 Y42.505
G1 X45.205 Y42.521
G1 X45.222 Y42.536
G1 X45.239 Y42.552
G1 X45.255 Y42.568
G1 X45.272 Y42.584
G1 X45.289 Y42.600
G1 X45.292 Y42.602
G1 X45.309 Y42.619
G1 X45.326 Y42.635
G1 X45.343 Y42.651
G1 X45.359 Y42.668
G1 X45.376 Y42.685
G1 X45.393 Y42.701
G1 X45.395 Y42.703
G1 X45.412 Y42.720
G1 X45.429 Y42.737
G1 X45.445 Y42.753
G1 X45.462 Y42.770
G1 X45.479 Y42.787
G1 X45.495 Y42.804
G1 X45.511 Y42.821
G1 X45.528 Y42.838
G1 X45.544 Y42.855
G1 X45.560 Y42.872
G1 X45.576 Y42.889
G1 X45.589 Y42.903
G1 X45.605 Y42.919
G1 X45.620 Y42.936
G1 X45.635 Y42.953
G1 X45.650 Y42.969
G1 X45.665 Y42.985
G1 X45.674 Y42.996
G1 X45.689 Y43.012
G1 X45.703 Y43.028
G1 X45.717 Y43.044
G1 X45.730 Y43.059
G1 X45.744 Y43.075
G1 X45.749 Y43.081
G1 X45.762 Y43.096
G1 X45.775 Y43.112
G1 X45.787 Y43.126
G1 X45.799 Y43.141
G1 X45.811 Y43.156
G1 X45.813 Y43.158
G1 X45.824 Y43.172
G1 X45.835 Y43.186
G1 X45.846 Y43.200
G1 X45.857 Y43.214
G1 X45.866 Y43.225
G1 X45.875 Y43.238
G1 X45.885 Y43.251
G1 X45.894 Y43.264
G1 X45.903 Y43.276
G1 X45.908 Y43.282
G1 X45.916 Y43.294
G1 X45.924 Y43.306
G1 X45.932 Y43.318
G1 X45.940 Y43.329
G1 X45.941 Y43.331
G1 X45.948 Y43.342
G1 X45.954 Y43.353
G1 X45.961 Y43.363
G1 X45.966 Y43.372
G1 X45.971 Y43.382
G1 X45.976 Y43.391
G1 X45.981 Y43.401
G1 X45.984 Y43.405
G1 X45.988 Y43.414
G1 X45.992 Y43.422
G1 X45.996 Y43.431
G1 X45.996 Y43.431
G1 X45.999 Y43.439
G1 X46.002 Y43.447
G1 X46.003 Y43.452
G1 X46.005 Y43.459
G1 X46.007 Y43.466
G1 X46.008 Y43.467
G1 X46.009 Y43.474
G1 X46.009 Y43.479
G1 X46.009 Y43.484
G1 X46.009 Y43.486
G1 X46.008 Y43.491
G1 X46.008 Y43.491
G1 X46.007 Y43.494
G1 X46.006 Y43.494
G1 X46.006 Y43.494
G1 X46.008 Y43.493
G1 X46.012 Y43.492
G1 X46.017 Y43.492
G1 X46.019 Y43.492
G1 X46.026 Y43.493
G1 X46.030 Y43.494
G1 X46.037 Y43.496
G1 X46.045 Y43.499
G1 X46.045 Y43.499
G1 X46.053 Y43.502
G1 X46.061 Y43.505
G1 X46.066 Y43.507
G1 X46.074 Y43.511
G1 X46.083 Y43.515
G1 X46.092 Y43.519
G1 X46.101 Y43.525
G1 X46.111 Y43.530
G1 X46.121 Y43.536
G1 X46.125 Y43.538
G1 X46.135 Y43.544
G1 X46.146 Y43.551
G1 X46.157 Y43.557
G1 X46.165 Y43.563
G1 X46.176 Y43.570
G1 X46.188 Y43.578
G1 X46.200 Y43.586
G1 X46.212 Y43.595
G1 X46.213 Y43.596
G1 X46.226 Y43.605
G1 X46.238 Y43.614
G1 X46.251 Y43.623
G1 X46.264 Y43.633
G1 X46.271 Y43.638
G1 X46.284 Y43.649
G1 X46.298 Y43.659
G1 X46.312 Y43.670
G1 X46.325 Y43.681
G1 X46.338 Y43.691
G1 X46.352 Y43.703
G1 X46.367 Y43.715
G1 X46.381 Y43.727
G1 X46.396 Y43.740
G1 X46.411 Y43.752
G1 X46.414 Y43.755
G1 X46.429 Y43.768
G1 X46.445 Y43.781
G1 X46.460 Y43.795
G1 X46.476 Y43.809
G1 X46.491 Y43.823
G1 X46.499 Y43.830
G1 X46.515 Y43.844
G1 X46.531 Y43.859
G1 X46.547 Y43.874
G1 X46.563 Y43.889
G1 X46.580 Y43.904
G1 X46.592 Y43.915
G1 X46.609 Y43.931
G1 X46.625 Y43.946
G1 X46.641 Y43.962
G1 X46.658 Y43.978
G1 X46.674 Y43.994
G1 X46.690 Y44.010
G1 X46.691 Y44.010
G1 X46.707 Y44.026
G1 X46.723 Y44.042
G1 X46.740 Y44.058
G1 X46.756 Y44.074
G1 X46.772 Y44.091
G1 X46.788 Y44.107
G1 X46.791 Y44.110
G1 X46.808 Y44.126
G1 X46.824 Y44.143
G1 X46.840 Y44.159
G1 X46.855 Y44.176
G1 X46.871 Y44.192
G1 X46.887 Y44.208
G1 X46.892 Y44.214
G1 X46.907 Y44.230
G1 X46.923 Y44.246
G1 X46.938 Y44.262
G1 X46.953 Y44.279
G1 X46.968 Y44.295
G1 X46.982 Y44.311
G1 X46.988 Y44.317
G1 X47.003 Y44.333
G1 X47.017 Y44.349
G1 X47.032 Y44.365
G1 X47.046 Y44.380
G1 X47.060 Y44.396
G1 X47.073 Y44.411
G1 X47.079 Y44.418
G1 X47.093 Y44.433
G1 X47.106 Y44.449
G1 X47.120 Y44.464
G1 X47.133 Y44.479
G1 X47.145 Y44.494
G1 X47.158 Y44.508
G1 X47.163 Y44.515
G1 X47.176 Y44.529
G1 X47.188 Y44.544
G1 X47.200 Y44.558
G1 X47.212 Y44.572
G1 X47.224 Y44.587
G1 X47.236 Y44.601
G1 X47.240 Y44.606
G1 X47.252 Y44.620
G1 X47.263 Y44.633
G1 X47.274 Y44.647
G1 X47.285 Y44.661
G1 X47.296 Y44.674
G1 X47.307 Y44.688
G1 X47.310 Y44.691
G1 X47.320 Y44.704
G1 X47.331 Y44.717
G1 X47.342 Y44.731
G1 X47.352 Y44.744
G1 X47.362 Y44.756
G1 X47.372 Y44.769
G1 X47.373 Y44.771
G1 X47.383 Y44.783
G1 X47.393 Y44.796
G1 X47.403 Y44.809
G1 X47.413 Y44.821
G1 X47.422 Y44.833
G1 X47.431 Y44.845
G1 X47.441 Y44.858
G1 X47.451 Y44.870
G1 X47.460 Y44.882
G1 X47.470 Y44.894
G1 X47.479 Y44.906
G1 X47.486 Y44.915
G1 X47.495 Y44.927
G1 X47.505 Y44.939
G1 X47.514 Y44.951
G1 X47.523 Y44.963
G1 X47.532 Y44.974
G1 X47.537 Y44.981
G1 X47.547 Y44.993
G1 X47.556 Y45.005
G1 X47.565 Y45.016
G1 X47.574 Y45.028
G1 X47.583 Y45.039
G1 X47.587 Y45.044
G1 X47.596 Y45.056
G1 X47.605 Y45.067
G1 X47.615 Y45.079
G1 X47.624 Y45.090
G1 X47.633 Y45.101
G1 X47.635 Y45.105
G1 X47.645 Y45.116
G1 X47.654 Y45.127
G1 X47.663 Y45.139
G1 X47.673 Y45.150
G1 X47.682 Y45.161
G1 X47.683 Y45.163
G1 X47.693 Y45.174
G1 X47.702 Y45.185
G1 X47.712 Y45.196
G1 X47.721 Y45.207
G1 X47.731 Y45.219
G1 X47.731 Y45.219
G1 X47.741 Y45.230
G1 X47.751 Y45.241
G1 X47.761 Y45.252
G1 X47.770 Y45.263
G1 X47.780 Y45.274
G1 X47.780 Y45.275
G1 X47.790 Y45.285
G1 X47.800 Y45.296
G1 X47.810 Y45.307
G1 X47.820 Y45.318
G1 X47.830 Y45.329
G1 X47.830 Y45.329
G1 X47.840 Y45.339
G1 X47.850 Y45.350
G1 X47.861 Y45.361
G1 X47.871 Y45.371
G1 X47.881 Y45.382
G1 X47.881 Y45.382
G1 X47.891 Y45.392
G1 X47.902 Y45.403
G1 X47.912 Y45.413
G1 X47.922 Y45.424
G1 X47.933 Y45.434
G1 X47.933 Y45.435
G1 X47.944 Y45.445
G1 X47.954 Y45.455
G1 X47.965 Y45.465
G1 X47.975 Y45.476
G1 X47.986 Y45.486
G1 X47.986 Y45.487
G1 X47.997 Y45.497
G1 X48.008 Y45.507
G1 X48.018 Y45.517
G1 X48.029 Y45.527
G1 X48.040 Y45.537
G1 X48.041 Y45.538
G1 X48.052 Y45.548
G1 X48.062 Y45.558
G1 X48.073 Y45.568
G1 X48.084 Y45.578
G1 X48.095 Y45.588
G1 X48.096 Y45.589
G1 X48.107 Y45.598
G1 X48.118 Y45.608
G1 X48.129 Y45.618
G1 X48.140 Y45.628
G1 X48.151 Y45.638
G1 X48.153 Y45.639
G1 X48.164 Y45.648
G1 X48.175 Y45.658
G1 X48.186 Y45.668
G1 X48.197 Y45.677
G1 X48.208 Y45.687
G1 X48.210 Y45.688
G1 X48.221 Y45.698
G1 X48.232 Y45.707
G1 X48.243 Y45.716
G1 X48.255 Y45.726
G1 X48.266 Y45.736
G1 X48.267 Y45.737
G1 X48.278 Y45.746
G1 X48.290 Y45.755
G1 X48.301 Y45.764
G1 X48.313 Y45.774
G1 X48.324 Y45.783
G1 X48.325 Y45.784
G1 X48.336 Y45.793
G1 X48.348 Y45.802
G1 X48.359 Y45.811
G1 X48.371 Y45.820
G1 X48.383 Y45.830
G1 X48.383 Y45.830
G1 X48.394 Y45.838
G1 X48.406 Y45.847
G1 X48.418 Y45.856
G1 X48.429 Y45.865
G1 X48.441 Y45.874
G1 X48.452 Y45.882
G1 X48.464 Y45.891
G1 X48.476 Y45.900
G1 X48.488 Y45.909
G1 X48.498 Y45.917
G1 X48.510 Y45.925
G1 X48.521 Y45.933
G1 X48.533 Y45.942
G1 X48.545 Y45.951
G1 X48.555 Y45.958
G1 X48.567 Y45.966
G1 X48.578 Y45.974
G1 X48.590 Y45.982
G1 X48.602 Y45.991
G1 X48.611 Y45.997
G1 X48.623 Y46.005
G1 X48.634 Y46.013
G1 X48.646 Y46.021
G1 X48.658 Y46.029
G1 X48.667 Y46.035
G1 X48.678 Y46.042
G1 X48.690 Y46.049
G1 X48.701 Y46.057
G1 X48.713 Y46.065
G1 X48.721 Y46.070
G1 X48.732 Y46.077
G1 X48.744 Y46.084
G1 X48.755 Y46.092
G1 X48.767 Y46.100
G1 X48.774 Y46.104
G1 X48.785 Y46.110
G1 X48.796 Y46.117
G1 X48.808 Y46.125
G1 X48.820 Y46.132
G1 X48.825 Y46.135
G1 X48.836 Y46.142
G1 X48.848 Y46.148
G1 X48.859 Y46.155
G1 X48.871 Y46.163
G1 X48.875 Y46.165
G1 X48.886 Y46.171
G1 X48.897 Y46.178
G1 X48.909 Y46.184
G1 X48.920 Y46.192
G1 X48.922 Y46.193
G1 X48.933 Y46.199
G1 X48.944 Y46.205
G1 X48.956 Y46.211
G1 X48.967 Y46.218
G1 X48.978 Y46.224
G1 X48.989 Y46.230
G1 X49.000 Y46.236
G1 X49.008 Y46.241
G1 X49.019 Y46.246
G1 X49.030 Y46.252
G1 X49.041 Y46.258
G1 X49.046 Y46.261
G1 X49.056 Y46.266
G1 X49.067 Y46.272
G1 X49.078 Y46.277
G1 X49.079 Y46.278
G1 X49.089 Y46.283
G1 X49.099 Y46.288
G1 X49.106 Y46.291
G1 X49.115 Y46.295
G1 X49.125 Y46.300
G1 X49.128 Y46.301
G1 X49.136 Y46.304
G1 X49.143 Y46.307
G1 X49.150 Y46.308
G1 X49.153 Y46.309
G1 X49.158 Y46.309
G1 X49.158 Y46.309
G1 X49.157 Y46.310
G1 X49.157 Y46.314
G1 X49.159 Y46.321
G1 X49.159 Y46.323
G1 X49.162 Y46.332
G1 X49.165 Y46.339
G1 X49.169 Y46.349
G1 X49.173 Y46.358
G1 X49.174 Y46.361
G1 X49.179 Y46.371
G1 X49.184 Y46.381
G1 X49.187 Y46.389
G1 X49.193 Y46.399
G1 X49.198 Y46.410
G1 X49.203 Y46.420
G1 X49.204 Y46.422
G1 X49.210 Y46.433
G1 X49.216 Y46.444
G1 X49.221 Y46.454
G1 X49.224 Y46.460
G1 X49.230 Y46.471
G1 X49.236 Y46.482
G1 X49.242 Y46.493
G1 X49.247 Y46.501
G1 X49.253 Y46.513
G1 X49.259 Y46.524
G1 X49.265 Y46.535
G1 X49.271 Y46.545
G1 X49.271 Y46.546
G1 X49.278 Y46.558
G1 X49.285 Y46.569
G1 X49.291 Y46.580
G1 X49.297 Y46.591
G1 X49.299 Y46.594
G1 X49.306 Y46.606
G1 X49.312 Y46.617
G1 X49.319 Y46.628
G1 X49.325 Y46.639
G1 X49.328 Y46.644
G1 X49.335 Y46.656
G1 X49.342 Y46.667
G1 X49.349 Y46.679
G1 X49.355 Y46.690
G1 X49.359 Y46.696
G1 X49.366 Y46.708
G1 X49.374 Y46.719
G1 X49.381 Y46.731
G1 X49.387 Y46.742
G1 X49.392 Y46.750
G1 X49.400 Y46.762
G1 X49.407 Y46.773
G1 X49.414 Y46.784
G1 X49.421 Y46.796
G1 X49.427 Y46.805
G1 X49.435 Y46.816
G1 X49.443 Y46.828
G1 X49.450 Y46.839
G1 X49.457 Y46.851
G1 X49.464 Y46.861
G1 X49.472 Y46.872
G1 X49.480 Y46.884
G1 X49.488 Y46.895
G1 X49.495 Y46.907
G1 X49.503 Y46.917
G1 X49.511 Y46.929
G1 X49.519 Y46.941
G1 X49.527 Y46.952
G1 X49.535 Y46.963
G1 X49.543 Y46.974
G1 X49.543 Y46.975
G1 X49.552 Y46.987
G1 X49.560 Y46.998
G1 X49.568 Y47.009
G1 X49.576 Y47.021
G1 X49.584 Y47.032
G1 X49.585 Y47.033
G1 X49.594 Y47.044
G1 X49.602 Y47.056
G1 X49.611 Y47.067
G1 X49.619 Y47.078
G1 X49.627 Y47.089
G1 X49.629 Y47.091
G1 X49.638 Y47.103
G1 X49.647 Y47.114
G1 X49.655 Y47.125
G1 X49.664 Y47.136
G1 X49.672 Y47.147
G1 X49.674 Y47.150
G1 X49.683 Y47.161
G1 X49.692 Y47.172
G1 X49.701 Y47.183
G1 X49.709 Y47.194
G1 X49.718 Y47.205
G1 X49.721 Y47.208
G1 X49.730 Y47.219
G1 X49.739 Y47.230
G1 X49.748 Y47.241
G1 X49.757 Y47.252
G1 X49.765 Y47.263
G1 X49.768 Y47.267
G1 X49.778 Y47.277
G1 X49.787 Y47.288
G1 X49.796 Y47.299
G1 X49.805 Y47.310
G1 X49.814 Y47.320
G1 X49.817 Y47.324
G1 X49.826 Y47.335
G1 X49.836 Y47.346
G1 X49.845 Y47.356
G1 X49.854 Y47.367
G1 X49.863 Y47.377
G1 X49.866 Y47.381
G1 X49.876 Y47.392
G1 X49.885 Y47.402
G1 X49.895 Y47.413
G1 X49.904 Y47.423
G1 X49.913 Y47.433
G1 X49.917 Y47.437
G1 X49.926 Y47.448
G1 X49.936 Y47.458
G1 X49.945 Y47.468
G1 X49.955 Y47.478
G1 X49.964 Y47.489
G1 X49.968 Y47.492
G1 X49.977 Y47.502
G1 X49.987 Y47.513
G1 X49.997 Y47.523
G1 X50.007 Y47.533
G1 X50.016 Y47.543
G1 X50.019 Y47.546
G1 X50.029 Y47.556
G1 X50.039 Y47.566
G1 X50.049 Y47.576
G1 X50.059 Y47.586
G1 X50.069 Y47.596
G1 X50.071 Y47.599
G1 X50.081 Y47.608
G1 X50.091 Y47.618
G1 X50.102 Y47.628
G1 X50.112 Y47.638
G1 X50.122 Y47.647
G1 X50.124 Y47.650
G1 X50.134 Y47.659
G1 X50.145 Y47.669
G1 X50.155 Y47.678
G1 X50.165 Y47.688
G1 X50.175 Y47.698
G1 X50.178 Y47.700
G1 X50.188 Y47.709
G1 X50.199 Y47.718
G1 X50.209 Y47.728
G1 X50.220 Y47.737
G1 X50.230 Y47.747
G1 X50.233 Y47.749
G1 X50.243 Y47.758
G1 X50.254 Y47.767
G1 X50.264 Y47.776
G1 X50.275 Y47.785
G1 X50.286 Y47.795
G1 X50.289 Y47.798
G1 X50.300 Y47.806
G1 X50.310 Y47.815
G1 X50.321 Y47.824
G1 X50.332 Y47.833
G1 X50.343 Y47.842
G1 X50.347 Y47.846
G1 X50.358 Y47.854
G1 X50.369 Y47.863
G1 X50.380 Y47.872
G1 X50.390 Y47.880
G1 X50.401 Y47.889
G1 X50.407 Y47.894
G1 X50.418 Y47.903
G1 X50.429 Y47.911
G1 X50.440 Y47.920
G1 X50.451 Y47.929
G1 X50.462 Y47.937
G1 X50.470 Y47.944
G1 X50.482 Y47.952
G1 X50.493 Y47.961
G1 X50.504 Y47.969
G1 X50.515 Y47.978
G1 X50.526 Y47.987
G1 X50.537 Y47.995
G1 X50.548 Y48.004
G1 X50.559 Y48.012
G1 X50.571 Y48.021
G1 X50.582 Y48.030
G1 X50.594 Y48.039
G1 X50.606 Y48.048
G1 X50.607 Y48.049
G1 X50.619 Y48.058
G1 X50.630 Y48.067
G1 X50.642 Y48.076
G1 X50.654 Y48.086
G1 X50.666 Y48.095
G1 X50.678 Y48.105
G1 X50.682 Y48.108
G1 X50.694 Y48.117
G1 X50.706 Y48.126
G1 X50.718 Y48.136
G1 X50.731 Y48.146
G1 X50.743 Y48.156
G1 X50.756 Y48.166
G1 X50.762 Y48.171
G1 X50.774 Y48.181
G1 X50.787 Y48.191
G1 X50.800 Y48.201
G1 X50.813 Y48.212
G1 X50.826 Y48.222
G1 X50.839 Y48.233
G1 X50.847 Y48.240
G1 X50.860 Y48.251
G1 X50.874 Y48.262
G1 X50.887 Y48.273
G1 X50.900 Y48.284
G1 X50.914 Y48.296
G1 X50.928 Y48.307
G1 X50.938 Y48.317
G1 X50.952 Y48.328
G1 X50.966 Y48.340
G1 X50.980 Y48.352
G1 X50.994 Y48.364
G1 X51.008 Y48.377
G1 X51.023 Y48.389
G1 X51.035 Y48.400
G1 X51.050 Y48.413
G1 X51.064 Y48.426
G1 X51.079 Y48.439
G1 X51.093 Y48.452
G1 X51.108 Y48.465
G1 X51.123 Y48.479
G1 X51.136 Y48.491
G1 X51.151 Y48.505
G1 X51.166 Y48.519
G1 X51.181 Y48.533
G1 X51.196 Y48.547
G1 X51.211 Y48.561
G1 X51.226 Y48.575
G1 X51.240 Y48.588
G1 X51.255 Y48.602
G1 X51.270 Y48.617
G1 X51.285 Y48.632
G1 X51.300 Y48.646
G1 X51.315 Y48.661
G1 X51.331 Y48.676
G1 X51.343 Y48.688
G1 X51.358 Y48.703
G1 X51.373 Y48.718
G1 X51.388 Y48.733
G1 X51.403 Y48.748
G1 X51.418 Y48.764
G1 X51.433 Y48.779
G1 X51.443 Y48.789
G1 X51.458 Y48.805
G1 X51.472 Y48.820
G1 X51.487 Y48.835
G1 X51.501 Y48.850
G1 X51.515 Y48.865
G1 X51.529 Y48.880
G1 X51.537 Y48.888
G1 X51.551 Y48.903
G1 X51.564 Y48.918
G1 X51.578 Y48.933
G1 X51.591 Y48.948
G1 X51.604 Y48.963
G1 X51.618 Y48.977
G1 X51.622 Y48.982
G1 X51.634 Y48.996
G1 X51.647 Y49.011
G1 X51.659 Y49.025
G1 X51.671 Y49.039
G1 X51.683 Y49.053
G1 X51.695 Y49.067
G1 X51.696 Y49.068
G1 X51.707 Y49.082
G1 X51.718 Y49.095
G1 X51.730 Y49.109
G1 X51.740 Y49.122
G1 X51.751 Y49.135
G1 X51.759 Y49.145
G1 X51.769 Y49.158
G1 X51.779 Y49.171
G1 X51.788 Y49.183
G1 X51.798 Y49.196
G1 X51.807 Y49.208
G1 X51.811 Y49.213
G1 X51.819 Y49.225
G1 X51.828 Y49.237
G1 X51.836 Y49.248
G1 X51.844 Y49.260
G1 X51.852 Y49.271
G1 X51.852 Y49.272
G1 X51.859 Y49.283
G1 X51.866 Y49.293
G1 X51.873 Y49.304
G1 X51.880 Y49.315
G1 X51.884 Y49.321
G1 X51.890 Y49.331
G1 X51.896 Y49.341
G1 X51.901 Y49.351
G1 X51.907 Y49.361
G1 X51.908 Y49.363
G1 X51.912 Y49.372
G1 X51.917 Y49.381
G1 X51.921 Y49.390
G1 X51.925 Y49.397
G1 X51.928 Y49.405
G1 X51.932 Y49.413
G1 X51.935 Y49.421
G1 X51.936 Y49.424
G1 X51.939 Y49.432
G1 X51.941 Y49.439
G1 X51.943 Y49.446
G1 X51.945 Y49.452
G1 X51.946 Y49.459
G1 X51.947 Y49.462
G1 X51.947 Y49.468
G1 X51.947 Y49.474
G1 X51.948 Y49.474
G1 X51.947 Y49.479
G1 X51.947 Y49.482
G1 X51.946 Y49.486
G1 X51.945 Y49.487
G1 X51.944 Y49.490
G1 X51.943 Y49.490
G1 X51.943 Y49.490
G1 X51.945 Y49.489
G1 X51.950 Y49.488
G1 X51.950 Y49.488
G1 X51.955 Y49.487
G1 X51.957 Y49.487
G1 X51.963 Y49.488
G1 X51.969 Y49.489
G1 X51.976 Y49.490
G1 X51.982 Y49.492
G1 X51.985 Y49.493
G1 X51.992 Y49.495
G1 X52.000 Y49.498
G1 X52.006 Y49.500
G1 X52.014 Y49.503
G1 X52.022 Y49.507
G1 X52.031 Y49.510
G1 X52.033 Y49.512
G1 X52.042 Y49.516
G1 X52.051 Y49.521
G1 X52.060 Y49.525
G1 X52.067 Y49.529
G1 X52.076 Y49.534
G1 X52.086 Y49.540
G1 X52.096 Y49.546
G1 X52.106 Y49.552
G1 X52.108 Y49.553
G1 X52.118 Y49.560
G1 X52.129 Y49.566
G1 X52.140 Y49.573
G1 X52.151 Y49.581
G1 X52.157 Y49.585
G1 X52.169 Y49.593
G1 X52.180 Y49.601
G1 X52.192 Y49.609
G1 X52.203 Y49.618
G1 X52.215 Y49.626
G1 X52.216 Y49.627
G1 X52.228 Y49.636
G1 X52.240 Y49.645
G1 X52.253 Y49.655
G1 X52.265 Y49.664
G1 X52.278 Y49.674
G1 X52.284 Y49.679
G1 X52.297 Y49.689
G1 X52.310 Y49.700
G1 X52.323 Y49.710
G1 X52.336 Y49.721
G1 X52.350 Y49.732
G1 X52.361 Y49.742
G1 X52.374 Y49.753
G1 X52.388 Y49.765
G1 X52.402 Y49.777
G1 X52.416 Y49.789
G1 X52.430 Y49.802
G1 X52.444 Y49.814
G1 X52.447 Y49.816
G1 X52.461 Y49.829
G1 X52.475 Y49.842
G1 X52.490 Y49.855
G1 X52.504 Y49.868
G1 X52.519 Y49.881
G1 X52.533 Y49.895
G1 X52.540 Y49.901
G1 X52.555 Y49.915
G1 X52.569 Y49.929
G1 X52.584 Y49.943
G1 X52.599 Y49.957
G1 X52.614 Y49.971
G1 X52.628 Y49.985
G1 X52.639 Y49.995
G1 X52.653 Y50.009
G1 X52.668 Y50.024
G1 X52.683 Y50.038
G1 X52.697 Y50.053
G1 X52.712 Y50.067
G1 X52.726 Y50.082
G1 X52.740 Y50.095
G1 X52.754 Y50.110
G1 X52.768 Y50.125
G1 X52.783 Y50.139
G1 X52.797 Y50.154
G1 X52.811 Y50.169
G1 X52.825 Y50.184
G1 X52.839 Y50.198
G1 X52.840 Y50.199
G1 X52.853 Y50.214
G1 X52.867 Y50.228
G1 X52.881 Y50.243
G1 X52.894 Y50.258
G1 X52.908 Y50.272
G1 X52.921 Y50.287
G1 X52.934 Y50.301
G1 X52.936 Y50.303
G1 X52.949 Y50.317
G1 X52.962 Y50.332
G1 X52.975 Y50.346
G1 X52.987 Y50.360
G1 X53.000 Y50.374
G1 X53.012 Y50.388
G1 X53.024 Y50.402
G1 X53.026 Y50.404
G1 X53.038 Y50.418
G1 X53.050 Y50.432
G1 X53.062 Y50.446
G1 X53.074 Y50.459
G1 X53.085 Y50.473
G1 X53.097 Y50.486
G1 X53.108 Y50.500
G1 X53.109 Y50.502
G1 X53.121 Y50.515
G1 X53.132 Y50.528
G1 X53.143 Y50.541
G1 X53.153 Y50.554
G1 X53.164 Y50.567
G1 X53.174 Y50.580
G1 X53.184 Y50.593
G1 X53.185 Y50.594
G1 X53.196 Y50.606
G1 X53.206 Y50.619
G1 X53.216 Y50.631
G1 X53.226 Y50.644
G1 X53.235 Y50.656
G1 X53.245 Y50.668
G1 X53.254 Y50.680
G1 X53.264 Y50.692
G1 X53.273 Y50.704
G1 X53.282 Y50.716
G1 X53.291 Y50.728
G1 X53.300 Y50.739
G1 X53.309 Y50.751
G1 X53.316 Y50.760
G1 X53.325 Y50.772
G1 X53.334 Y50.784
G1 X53.343 Y50.795
G1 X53.352 Y50.806
G1 X53.360 Y50.818
G1 X53.369 Y50.829
G1 X53.374 Y50.836
G1 X53.382 Y50.847
G1 X53.391 Y50.858
G1 X53.399 Y50.870
G1 X53.408 Y50.880
G1 X53.416 Y50.891
G1 X53.424 Y50.902
G1 X53.427 Y50.907
G1 X53.436 Y50.918
G1 X53.444 Y50.929
G1 X53.452 Y50.940
G1 X53.460 Y50.950
G1 X53.468 Y50.961
G1 X53.476 Y50.972
G1 X53.478 Y50.974
G1 X53.486 Y50.985
G1 X53.494 Y50.995
G1 X53.502 Y51.006
G1 X53.510 Y51.016
G1 X53.518 Y51.027
G1 X53.526 Y51.037
G1 X53.527 Y51.038
G1 X53.535 Y51.048
G1 X53.543 Y51.059
G1 X53.551 Y51.069
G1 X53.559 Y51.080
G1 X53.567 Y51.090
G1 X53.574 Y51.099
G1 X53.583 Y51.109
G1 X53.591 Y51.119
G1 X53.599 Y51.130
G1 X53.608 Y51.140
G1 X53.616 Y51.150
G1 X53.622 Y51.158
G1 X53.630 Y51.168
G1 X53.639 Y51.178
G1 X53.647 Y51.188
G1 X53.656 Y51.198
G1 X53.664 Y51.208
G1 X53.669 Y51.215
G1 X53.678 Y51.225
G1 X53.687 Y51.235
G1 X53.696 Y51.244
G1 X53.704 Y51.254
G1 X53.713 Y51.264
G1 X53.718 Y51.270
G1 X53.727 Y51.280
G1 X53.736 Y51.290
G1 X53.745 Y51.299
G1 X53.754 Y51.309
G1 X53.762 Y51.319
G1 X53.767 Y51.325
G1 X53.777 Y51.334
G1 X53.786 Y51.344
G1 X53.795 Y51.353
G1 X53.804 Y51.363
G1 X53.813 Y51.372
G1 X53.818 Y51.378
G1 X53.828 Y51.387
G1 X53.837 Y51.397
G1 X53.846 Y51.406
G1 X53.856 Y51.415
G1 X53.865 Y51.425
G1 X53.870 Y51.431
G1 X53.880 Y51.440
G1 X53.889 Y51.449
G1 X53.899 Y51.458
G1 X53.908 Y51.467
G1 X53.918 Y51.477
G1 X53.924 Y51.483
G1 X53.933 Y51.491
G1 X53.943 Y51.500
G1 X53.953 Y51.509
G1 X53.962 Y51.518
G1 X53.972 Y51.528
G1 X53.978 Y51.534
G1 X53.988 Y51.542
G1 X53.998 Y51.551
G1 X54.008 Y51.560
G1 X54.018 Y51.569
G1 X54.027 Y51.578
G1 X54.034 Y51.584
G1 X54.044 Y51.593
G1 X54.054 Y51.601
G1 X54.064 Y51.610
G1 X54.074 Y51.619
G1 X54.084 Y51.628
G1 X54.091 Y51.634
G1 X54.101 Y51.642
G1 X54.111 Y51.651
G1 X54.121 Y51.659
G1 X54.131 Y51.668
G1 X54.141 Y51.677
G1 X54.148 Y51.683
G1 X54.159 Y51.691
G1 X54.169 Y51.699
G1 X54.179 Y51.708
G1 X54.189 Y51.716
G1 X54.200 Y51.725
G1 X54.207 Y51.730
G1 X54.217 Y51.739
G1 X54.227 Y51.747
G1 X54.238 Y51.755
G1 X54.248 Y51.763
G1 X54.259 Y51.772
G1 X54.265 Y51.777
G1 X54.276 Y51.785
G1 X54.286 Y51.793
G1 X54.296 Y51.801
G1 X54.307 Y51.809
G1 X54.318 Y51.817
G1 X54.324 Y51.822
G1 X54.334 Y51.830
G1 X54.345 Y51.837
G1 X54.355 Y51.845
G1 X54.366 Y51.853
G1 X54.377 Y51.861
G1 X54.382 Y51.866
G1 X54.393 Y51.873
G1 X54.403 Y51.881
G1 X54.414 Y51.888
G1 X54.425 Y51.896
G1 X54.436 Y51.904
G1 X54.441 Y51.908
G1 X54.451 Y51.915
G1 X54.462 Y51.922
G1 X54.473 Y51.929
G1 X54.484 Y51.937
G1 X54.495 Y51.945
G1 X54.499 Y51.948
G1 X54.509 Y51.955
G1 X54.520 Y51.962
G1 X54.531 Y51.969
G1 X54.542 Y51.976
G1 X54.553 Y51.984
G1 X54.556 Y51.986
G1 X54.566 Y51.993
G1 X54.577 Y51.999
G1 X54.588 Y52.006
G1 X54.599 Y52.013
G1 X54.610 Y52.021
G1 X54.612 Y52.022
G1 X54.623 Y52.029
G1 X54.633 Y52.035
G1 X54.644 Y52.042
G1 X54.655 Y52.049
G1 X54.666 Y52.056
G1 X54.668 Y52.057
G1 X54.678 Y52.063
G1 X54.689 Y52.069
G1 X54.699 Y52.075
G1 X54.710 Y52.082
G1 X54.721 Y52.089
G1 X54.722 Y52.089
G1 X54.732 Y52.095
G1 X54.743 Y52.101
G1 X54.753 Y52.107
G1 X54.764 Y52.113
G1 X54.774 Y52.120
G1 X54.785 Y52.125
G1 X54.795 Y52.131
G1 X54.806 Y52.137
G1 X54.816 Y52.143
G1 X54.825 Y52.148
G1 X54.835 Y52.153
G1 X54.846 Y52.159
G1 X54.856 Y52.165
G1 X54.867 Y52.171
G1 X54.874 Y52.175
G1 X54.884 Y52.180
G1 X54.894 Y52.185
G1 X54.904 Y52.191
G1 X54.915 Y52.196
G1 X54.919 Y52.199
G1 X54.929 Y52.204
G1 X54.939 Y52.209
G1 X54.950 Y52.214
G1 X54.960 Y52.220
G1 X54.962 Y52.221
G1 X54.972 Y52.225
G1 X54.982 Y52.230
G1 X54.992 Y52.235
G1 X55.000 Y52.240
G1 X55.010 Y52.244
G1 X55.020 Y52.249
G1 X55.030 Y52.254
G1 X55.034 Y52.256
G1 X55.043 Y52.260
G1 X55.053 Y52.264
G1 X55.062 Y52.268
G1 X55.063 Y52.268
G1 X55.071 Y52.272
G1 X55.080 Y52.275
G1 X55.085 Y52.277
G1 X55.093 Y52.280
G1 X55.101 Y52.282
G1 X55.101 Y52.282
G1 X55.107 Y52.284
G1 X55.111 Y52.284
G1 X55.115 Y52.284
G1 X55.116 Y52.284
G1 X55.116 Y52.285
G1 X55.115 Y52.289
G1 X55.116 Y52.296
G1 X55.117 Y52.299
G1 X55.119 Y52.307
G1 X55.122 Y52.315
G1 X55.122 Y52.315
G1 X55.125 Y52.324
G1 X55.129 Y52.333
G1 X55.131 Y52.338
G1 X55.135 Y52.347
G1 X55.139 Y52.357
G1 X55.143 Y52.366
G1 X55.143 Y52.367
G1 X55.148 Y52.377
G1 X55.152 Y52.386
G1 X55.157 Y52.396
G1 X55.159 Y52.401
G1 X55.164 Y52.411
G1 X55.169 Y52.421
G1 X55.173 Y52.431
G1 X55.178 Y52.439
G1 X55.183 Y52.450
G1 X55.188 Y52.460
G1 X55.193 Y52.470
G1 X55.198 Y52.480
G1 X55.199 Y52.482
G1 X55.205 Y52.493
G1 X55.210 Y52.503
G1 X55.215 Y52.513
G1 X55.220 Y52.523
G1 X55.223 Y52.528
G1 X55.229 Y52.539
G1 X55.234 Y52.550
G1 X55.240 Y52.560
G1 X55.245 Y52.570
G1 X55.249 Y52.577
G1 X55.255 Y52.588
G1 X55.261 Y52.599
G1 X55.267 Y52.609
G1 X55.272 Y52.619
G1 X55.277 Y52.629
G1 X55.283 Y52.639
G1 X55.289 Y52.650
G1 X55.295 Y52.660
G1 X55.301 Y52.671
G1 X55.306 Y52.681
G1 X55.307 Y52.682
G1 X55.313 Y52.692
G1 X55.320 Y52.703
G1 X55.326 Y52.714
G1 X55.332 Y52.724
G1 X55.338 Y52.734
G1 X55.339 Y52.736
G1 X55.346 Y52.747
G1 X55.352 Y52.758
G1 X55.359 Y52.768
G1 X55.365 Y52.779
G1 X55.371 Y52.789
G1 X55.373 Y52.792
G1 X55.380 Y52.803
G1 X55.386 Y52.814
G1 X55.393 Y52.824
G1 X55.399 Y52.835
G1 X55.406 Y52.845
G1 X55.408 Y52.849
G1 X55.416 Y52.860
G1 X55.423 Y52.871
G1 X55.429 Y52.881
G1 X55.436 Y52.892
G1 X55.443 Y52.902
G1 X55.446 Y52.907
G1 X55.453 Y52.918
G1 X55.461 Y52.928
G1 X55.468 Y52.939
G1 X55.475 Y52.949
G1 X55.482 Y52.960
G1 X55.486 Y52.966
G1 X55.493 Y52.976
G1 X55.501 Y52.987
G1 X55.508 Y52.997
G1 X55.515 Y53.008
G1 X55.522 Y53.018
G1 X55.527 Y53.025
G1 X55.535 Y53.035
G1 X55.542 Y53.046
G1 X55.550 Y53.056
G1 X55.557 Y53.066
G1 X55.564 Y53.076
G1 X55.570 Y53.084
G1 X55.578 Y53.094
G1 X55.585 Y53.105
G1 X55.593 Y53.115
G1 X55.601 Y53.125
G1 X55.608 Y53.135
G1 X55.614 Y53.143
G1 X55.622 Y53.153
G1 X55.630 Y53.164
G1 X55.638 Y53.174
G1 X55.646 Y53.184
G1 X55.653 Y53.194
G1 X55.660 Y53.202
G1 X55.668 Y53.212
G1 X55.676 Y53.222
G1 X55.684 Y53.232
G1 X55.692 Y53.242
G1 X55.700 Y53.252
G1 X55.707 Y53.261
G1 X55.715 Y53.271
G1 X55.724 Y53.281
G1 X55.732 Y53.291
G1 X55.740 Y53.300
G1 X55.748 Y53.310
G1 X55.755 Y53.319
G1 X55.764 Y53.329
G1 X55.772 Y53.339
G1 X55.780 Y53.348
G1 X55.788 Y53.358
G1 X55.797 Y53.368
G1 X55.804 Y53.377
G1 X55.813 Y53.386
G1 X55.821 Y53.396
G1 X55.830 Y53.405
G1 X55.838 Y53.415
G1 X55.846 Y53.424
G1 X55.854 Y53.433
G1 X55.863 Y53.442
G1 X55.872 Y53.452
G1 X55.880 Y53.461
G1 X55.889 Y53.470
G1 X55.897 Y53.480
G1 X55.905 Y53.488
G1 X55.914 Y53.497
G1 X55.923 Y53.507
G1 X55.931 Y53.516
G1 X55.940 Y53.525
G1 X55.949 Y53.534
G1 X55.956 Y53.542
G1 X55.965 Y53.551
G1 X55.974 Y53.560
G1 X55.983 Y53.569
G1 X55.992 Y53.578
G1 X56.001 Y53.587
G1 X56.009 Y53.595
G1 X56.018 Y53.603
G1 X56.027 Y53.612
G1 X56.036 Y53.621
G1 X56.045 Y53.630
G1 X56.054 Y53.639
G1 X56.062 Y53.646
G1 X56.071 Y53.654
G1 X56.080 Y53.663
G1 X56.089 Y53.671
G1 X56.099 Y53.680
G1 X56.108 Y53.689
G1 X56.116 Y53.696
G1 X56.125 Y53.704
G1 X56.134 Y53.712
G1 X56.144 Y53.721
G1 X56.153 Y53.729
G1 X56.163 Y53.737
G1 X56.171 Y53.745
G1 X56.180 Y53.752
G1 X56.190 Y53.760
G1 X56.200 Y53.769
G1 X56.209 Y53.777
G1 X56.219 Y53.785
G1 X56.228 Y53.792
G1 X56.237 Y53.800
G1 X56.247 Y53.808
G1 X56.257 Y53.816
G1 X56.267 Y53.824
G1 X56.276 Y53.832
G1 X56.286 Y53.840
G1 X56.286 Y53.840
G1 X56.296 Y53.848
G1 X56.306 Y53.855
G1 X56.316 Y53.863
G1 X56.326 Y53.871
G1 X56.336 Y53.879
G1 X56.346 Y53.887
G1 X56.347 Y53.888
G1 X56.357 Y53.895
G1 X56.367 Y53.903
G1 X56.377 Y53.910
G1 X56.387 Y53.918
G1 X56.397 Y53.926
G1 X56.408 Y53.934
G1 X56.411 Y53.937
G1 X56.421 Y53.944
G1 X56.431 Y53.951
G1 X56.441 Y53.959
G1 X56.452 Y53.967
G1 X56.462 Y53.975
G1 X56.473 Y53.983
G1 X56.478 Y53.987
G1 X56.489 Y53.995
G1 X56.499 Y54.002
G1 X56.509 Y54.010
G1 X56.520 Y54.018
G1 X56.531 Y54.026
G1 X56.541 Y54.034
G1 X56.549 Y54.040
G1 X56.560 Y54.048
G1 X56.571 Y54.056
G1 X56.581 Y54.064
G1 X56.592 Y54.072
G1 X56.603 Y54.081
G1 X56.614 Y54.089
G1 X56.625 Y54.098
G1 X56.636 Y54.106
G1 X56.647 Y54.114
G1 X56.658 Y54.123
G1 X56.670 Y54.131
G1 X56.681 Y54.140
G1 X56.692 Y54.149
G1 X56.704 Y54.158
G1 X56.706 Y54.160
G1 X56.717 Y54.169
G1 X56.729 Y54.178
G1 X56.741 Y54.187
G1 X56.752 Y54.196
G1 X56.764 Y54.205
G1 X56.776 Y54.215
G1 X56.788 Y54.225
G1 X56.792 Y54.228
G1 X56.804 Y54.238
G1 X56.817 Y54.248
G1 X56.829 Y54.257
G1 X56.841 Y54.267
G1 X56.853 Y54.278
G1 X56.866 Y54.288
G1 X56.878 Y54.298
G1 X56.885 Y54.304
G1 X56.897 Y54.314
G1 X56.910 Y54.325
G1 X56.922 Y54.336
G1 X56.935 Y54.346
G1 X56.948 Y54.357
G1 X56.961 Y54.369
G1 X56.974 Y54.380
G1 X56.982 Y54.387
G1 X56.995 Y54.398
G1 X57.008 Y54.410
G1 X57.021 Y54.421
G1 X57.035 Y54.433
G1 X57.048 Y54.445
G1 X57.061 Y54.457
G1 X57.075 Y54.469
G1 X57.084 Y54.477
G1 X57.097 Y54.489
G1 X57.111 Y54.502
G1 X57.124 Y54.514
G1 X57.138 Y54.527
G1 X57.151 Y54.540
G1 X57.165 Y54.552
G1 X57.179 Y54.565
G1 X57.187 Y54.573
G1 X57.201 Y54.586
G1 X57.215 Y54.600
G1 X57.229 Y54.613
G1 X57.242 Y54.626
G1 X57.256 Y54.639
G1 X57.270 Y54.653
G1 X57.283 Y54.666
G1 X57.291 Y54.674
G1 X57.305 Y54.687
G1 X57.318 Y54.701
G1 X57.332 Y54.714
G1 X57.345 Y54.728
G1 X57.359 Y54.742
G1 X57.372 Y54.755
G1 X57.385 Y54.769
G1 X57.391 Y54.775
G1 X57.404 Y54.789
G1 X57.417 Y54.802
G1 X57.430 Y54.816
G1 X57.443 Y54.830
G1 X57.456 Y54.843
G1 X57.469 Y54.857
G1 X57.482 Y54.871
G1 X57.485 Y54.874
G1 X57.497 Y54.888
G1 X57.509 Y54.901
G1 X57.521 Y54.915
G1 X57.534 Y54.928
G1 X57.545 Y54.941
G1 X57.557 Y54.955
G1 X57.569 Y54.968
G1 X57.580 Y54.981
G1 X57.592 Y54.994
G1 X57.603 Y55.007
G1 X57.614 Y55.020
G1 X57.624 Y55.033
G1 X57.635 Y55.046
G1 X57.642 Y55.055
G1 X57.653 Y55.067
G1 X57.663 Y55.080
G1 X57.673 Y55.092
G1 X57.682 Y55.104
G1 X57.692 Y55.116
G1 X57.701 Y55.129
G1 X57.705 Y55.133
G1 X57.713 Y55.145
G1 X57.722 Y55.156
G1 X57.731 Y55.168
G1 X57.739 Y55.179
G1 X57.748 Y55.191
G1 X57.755 Y55.202
G1 X57.763 Y55.213
G1 X57.771 Y55.223
G1 X57.778 Y55.234
G1 X57.785 Y55.245
G1 X57.792 Y55.255
G1 X57.796 Y55.261
G1 X57.802 Y55.271
G1 X57.808 Y55.281
G1 X57.814 Y55.291
G1 X57.820 Y55.301
G1 X57.826 Y55.311
G1 X57.827 Y55.312
G1 X57.832 Y55.321
G1 X57.837 Y55.330
G1 X57.842 Y55.339
G1 X57.847 Y55.348
G1 X57.850 Y55.354
G1 X57.854 Y55.363
G1 X57.858 Y55.371
G1 X57.861 Y55.379
G1 X57.865 Y55.387
G1 X57.866 Y55.389
G1 X57.869 Y55.397
G1 X57.872 Y55.404
G1 X57.874 Y55.412
G1 X57.876 Y55.417
G1 X57.878 Y55.424
G1 X57.880 Y55.431
G1 X57.882 Y55.438
G1 X57.882 Y55.440
G1 X57.883 Y55.446
G1 X57.884 Y55.452
G1 X57.885 Y55.457
G1 X57.885 Y55.462
G1 X57.886 Y55.468
G1 X57.886 Y55.469
G1 X57.885 Y55.474
G1 X57.884 Y55.478
G1 X57.883 Y55.482
G1 X57.883 Y55.483
G1 X57.881 Y55.486
G1 X57.880 Y55.487
G1 X57.880 Y55.486
G1 X57.882 Y55.485
G1 X57.887 Y55.484
G1 X57.887 Y55.483
G1 X57.892 Y55.483
G1 X57.895 Y55.483
G1 X57.901 Y55.483
G1 X57.907 Y55.483
G1 X57.908 Y55.483
G1 X57.914 Y55.485
G1 X57.920 Y55.486
G1 X57.924 Y55.487
G1 X57.931 Y55.489
G1 X57.938 Y55.491
G1 X57.945 Y55.493
G1 X57.946 Y55.493
G1 X57.954 Y55.496
G1 X57.961 Y55.499
G1 X57.969 Y55.502
G1 X57.974 Y55.504
G1 X57.982 Y55.508
G1 X57.991 Y55.511
G1 X57.999 Y55.515
G1 X58.008 Y55.520
G1 X58.009 Y55.520
G1 X58.018 Y55.525
G1 X58.027 Y55.530
G1 X58.036 Y55.535
G1 X58.045 Y55.540
G1 X58.051 Y55.543
G1 X58.061 Y55.549
G1 X58.070 Y55.555
G1 X58.080 Y55.561
G1 X58.090 Y55.567
G1 X58.100 Y55.574
G1 X58.101 Y55.575
G1 X58.112 Y55.581
G1 X58.122 Y55.589
G1 X58.133 Y55.596
G1 X58.144 Y55.603
G1 X58.154 Y55.611
G1 X58.161 Y55.615
G1 X58.172 Y55.623
G1 X58.183 Y55.631
G1 X58.194 Y55.640
G1 X58.206 Y55.648
G1 X58.217 Y55.657
G1 X58.229 Y55.666
G1 X58.229 Y55.666
G1 X58.241 Y55.675
G1 X58.253 Y55.685
G1 X58.265 Y55.694
G1 X58.277 Y55.704
G1 X58.290 Y55.714
G1 X58.302 Y55.724
G1 X58.307 Y55.728
G1 X58.320 Y55.739
G1 X58.332 Y55.749
G1 X58.345 Y55.760
G1 X58.358 Y55.771
G1 X58.371 Y55.782
G1 X58.384 Y55.793
G1 X58.394 Y55.802
G1 X58.407 Y55.814
G1 X58.420 Y55.825
G1 X58.433 Y55.837
G1 X58.446 Y55.849
G1 X58.459 Y55.861
G1 X58.473 Y55.873
G1 X58.486 Y55.885
G1 X58.488 Y55.887
G1 X58.501 Y55.899
G1 X58.514 Y55.912
G1 X58.528 Y55.924
G1 X58.541 Y55.937
G1 X58.554 Y55.950
G1 X58.568 Y55.962
G1 X58.581 Y55.975
G1 X58.587 Y55.980
G1 X58.600 Y55.993
G1 X58.613 Y56.006
G1 X58.626 Y56.020
G1 X58.640 Y56.033
G1 X58.653 Y56.046
G1 X58.666 Y56.059
G1 X58.679 Y56.072
G1 X58.687 Y56.081
G1 X58.701 Y56.094
G1 X58.714 Y56.107
G1 X58.726 Y56.121
G1 X58.739 Y56.134
G1 X58.752 Y56.147
G1 X58.765 Y56.161
G1 X58.778 Y56.174
G1 X58.787 Y56.185
G1 X58.800 Y56.198
G1 X58.812 Y56.211
G1 X58.825 Y56.225
G1 X58.837 Y56.238
G1 X58.849 Y56.251
G1 X58.861 Y56.264
G1 X58.873 Y56.277
G1 X58.883 Y56.289
G1 X58.895 Y56.302
G1 X58.907 Y56.315
G1 X58.918 Y56.328
G1 X58.930 Y56.341
G1 X58.941 Y56.354
G1 X58.952 Y56.367
G1 X58.963 Y56.379
G1 X58.973 Y56.391
G1 X58.984 Y56.404
G1 X58.995 Y56.416
G1 X59.005 Y56.429
G1 X59.016 Y56.441
G1 X59.026 Y56.454
G1 X59.036 Y56.466
G1 X59.047 Y56.478
G1 X59.055 Y56.489
G1 X59.066 Y56.501
G1 X59.075 Y56.513
G1 X59.085 Y56.525
G1 X59.095 Y56.537
G1 X59.104 Y56.549
G1 X59.114 Y56.561
G1 X59.123 Y56.572
G1 X59.130 Y56.582
G1 X59.140 Y56.593
G1 X59.149 Y56.605
G1 X59.158 Y56.616
G1 X59.167 Y56.628
G1 X59.175 Y56.639
G1 X59.184 Y56.650
G1 X59.192 Y56.661
G1 X59.198 Y56.669
G1 X59.207 Y56.680
G1 X59.215 Y56.691
G1 X59.224 Y56.702
G1 X59.232 Y56.713
G1 X59.240 Y56.724
G1 X59.248 Y56.734
G1 X59.256 Y56.745
G1 X59.260 Y56.751
G1 X59.268 Y56.761
G1 X59.276 Y56.772
G1 X59.284 Y56.782
G1 X59.291 Y56.793
G1 X59.299 Y56.803
G1 X59.306 Y56.814
G1 X59.314 Y56.824
G1 X59.316 Y56.827
G1 X59.324 Y56.837
G1 X59.331 Y56.848
G1 X59.339 Y56.858
G1 X59.346 Y56.868
G1 X59.354 Y56.878
G1 X59.361 Y56.888
G1 X59.368 Y56.898
G1 X59.369 Y56.899
G1 X59.376 Y56.909
G1 X59.384 Y56.919
G1 X59.391 Y56.929
G1 X59.398 Y56.939
G1 X59.405 Y56.949
G1 X59.412 Y56.958
G1 X59.418 Y56.967
G1 X59.426 Y56.977
G1 X59.433 Y56.987
G1 X59.440 Y56.996
G1 X59.447 Y57.006
G1 X59.455 Y57.016
G1 X59.462 Y57.025
G1 X59.466 Y57.032
G1 X59.474 Y57.041
G1 X59.481 Y57.051
G1 X59.488 Y57.060
G1 X59.496 Y57.070
G1 X59.503 Y57.079
G1 X59.510 Y57.089
G1 X59.513 Y57.093
G1 X59.521 Y57.103
G1 X59.528 Y57.112
G1 X59.536 Y57.122
G1 X59.543 Y57.131
G1 X59.550 Y57.140
G1 X59.558 Y57.150
G1 X59.560 Y57.153
G1 X59.568 Y57.162
G1 X59.575 Y57.171
G1 X59.583 Y57.180
G1 X59.591 Y57.190
G1 X59.598 Y57.199
G1 X59.606 Y57.208
G1 X59.607 Y57.210
G1 X59.615 Y57.219
G1 X59.623 Y57.228
G1 X59.631 Y57.237
G1 X59.639 Y57.246
G1 X59.646 Y57.256
G1 X59.654 Y57.265
G1 X59.655 Y57.266
G1 X59.664 Y57.275
G1 X59.672 Y57.284
G1 X59.680 Y57.293
G1 X59.688 Y57.302
G1 X59.696 Y57.311
G1 X59.704 Y57.319
G1 X59.705 Y57.321
G1 X59.713 Y57.329
G1 X59.721 Y57.338
G1 X59.730 Y57.347
G1 X59.738 Y57.355
G1 X59.746 Y57.364
G1 X59.754 Y57.373
G1 X59.755 Y57.374
G1 X59.764 Y57.383
G1 X59.772 Y57.391
G1 X59.781 Y57.400
G1 X59.789 Y57.408
G1 X59.798 Y57.417
G1 X59.806 Y57.425
G1 X59.807 Y57.427
G1 X59.816 Y57.435
G1 X59.825 Y57.443
G1 X59.833 Y57.452
G1 X59.842 Y57.460
G1 X59.850 Y57.468
G1 X59.859 Y57.477
G1 X59.861 Y57.479
G1 X59.870 Y57.487
G1 X59.878 Y57.495
G1 X59.887 Y57.503
G1 X59.896 Y57.511
G1 X59.905 Y57.519
G1 X59.914 Y57.528
G1 X59.916 Y57.530
G1 X59.925 Y57.538
G1 X59.934 Y57.545
G1 X59.943 Y57.553
G1 X59.951 Y57.561
G1 X59.960 Y57.570
G1 X59.969 Y57.578
G1 X59.972 Y57.580
G1 X59.981 Y57.588
G1 X59.990 Y57.595
G1 X59.999 Y57.603
G1 X60.008 Y57.611
G1 X60.017 Y57.619
G1 X60.026 Y57.627
G1 X60.029 Y57.629
G1 X60.038 Y57.637
G1 X60.047 Y57.644
G1 X60.057 Y57.652
G1 X60.066 Y57.660
G1 X60.075 Y57.667
G1 X60.085 Y57.675
G1 X60.087 Y57.677
G1 X60.096 Y57.685
G1 X60.106 Y57.692
G1 X60.115 Y57.700
G1 X60.125 Y57.707
G1 X60.134 Y57.715
G1 X60.143 Y57.723
G1 X60.146 Y57.725
G1 X60.155 Y57.732
G1 X60.165 Y57.739
G1 X60.174 Y57.746
G1 X60.184 Y57.754
G1 X60.193 Y57.761
G1 X60.203 Y57.769
G1 X60.205 Y57.770
G1 X60.215 Y57.777
G1 X60.224 Y57.784
G1 X60.234 Y57.792
G1 X60.244 Y57.799
G1 X60.253 Y57.806
G1 X60.263 Y57.814
G1 X60.264 Y57.815
G1 X60.274 Y57.822
G1 X60.284 Y57.828
G1 X60.294 Y57.835
G1 X60.303 Y57.842
G1 X60.313 Y57.850
G1 X60.323 Y57.857
G1 X60.324 Y57.857
G1 X60.334 Y57.864
G1 X60.343 Y57.871
G1 X60.353 Y57.877
G1 X60.363 Y57.884
G1 X60.373 Y57.891
G1 X60.383 Y57.898
G1 X60.393 Y57.905
G1 X60.403 Y57.911
G1 X60.413 Y57.918
G1 X60.423 Y57.924
G1 X60.433 Y57.931
G1 X60.442 Y57.938
G1 X60.452 Y57.944
G1 X60.462 Y57.950
G1 X60.472 Y57.956
G1 X60.482 Y57.963
G1 X60.492 Y57.969
G1 X60.500 Y57.975
G1 X60.510 Y57.981
G1 X60.520 Y57.986
G1 X60.530 Y57.993
G1 X60.540 Y57.999
G1 X60.550 Y58.005
G1 X60.558 Y58.010
G1 X60.568 Y58.016
G1 X60.577 Y58.021
G1 X60.587 Y58.027
G1 X60.597 Y58.033
G1 X60.608 Y58.039
G1 X60.614 Y58.043
G1 X60.624 Y58.049
G1 X60.634 Y58.054
G1 X60.644 Y58.060
G1 X60.654 Y58.065
G1 X60.664 Y58.071
G1 X60.670 Y58.075
G1 X60.679 Y58.080
G1 X60.689 Y58.085
G1 X60.699 Y58.090
G1 X60.709 Y58.096
G1 X60.719 Y58.101
G1 X60.723 Y58.104
G1 X60.733 Y58.109
G1 X60.743 Y58.114
G1 X60.752 Y58.119
G1 X60.762 Y58.124
G1 X60.772 Y58.130
G1 X60.775 Y58.131
G1 X60.785 Y58.136
G1 X60.794 Y58.141
G1 X60.804 Y58.145
G1 X60.814 Y58.151
G1 X60.824 Y58.156
G1 X60.825 Y58.157
G1 X60.834 Y58.161
G1 X60.844 Y58.165
G1 X60.853 Y58.170
G1 X60.863 Y58.175
G1 X60.872 Y58.180
G1 X60.881 Y58.184
G1 X60.890 Y58.188
G1 X60.900 Y58.193
G1 X60.910 Y58.198
G1 X60.915 Y58.200
G1 X60.924 Y58.204
G1 X60.934 Y58.208
G1 X60.943 Y58.213
G1 X60.953 Y58.218
G1 X60.955 Y58.219
G1 X60.964 Y58.222
G1 X60.973 Y58.226
G1 X60.982 Y58.230
G1 X60.990 Y58.234
G1 X60.998 Y58.237
G1 X61.007 Y58.240
G1 X61.016 Y58.244
G1 X61.019 Y58.245
G1 X61.027 Y58.248
G1 X61.035 Y58.251
G1 X61.042 Y58.254
G1 X61.049 Y58.256
G1 X61.057 Y58.258
G1 X61.058 Y58.258
G1 X61.065 Y58.259
G1 X61.069 Y58.260
G1 X61.073 Y58.259
G1 X61.075 Y58.259
G1 X61.074 Y58.260
G1 X61.073 Y58.265
G1 X61.073 Y58.265
G1 X61.074 Y58.271
G1 X61.074 Y58.275
G1 X61.077 Y58.282
G1 X61.078 Y58.290
G1 X61.079 Y58.292
G1 X61.082 Y58.300
G1 X61.085 Y58.308
G1 X61.087 Y58.315
G1 X61.091 Y58.324
G1 X61.094 Y58.333
G1 X61.097 Y58.341
G1 X61.098 Y58.344
G1 X61.103 Y58.354
G1 X61.107 Y58.363
G1 X61.110 Y58.372
G1 X61.113 Y58.379
G1 X61.118 Y58.389
G1 X61.122 Y58.398
G1 X61.126 Y58.408
G1 X61.130 Y58.416
G1 X61.131 Y58.419
G1 X61.136 Y58.429
G1 X61.140 Y58.439
G1 X61.145 Y58.448
G1 X61.149 Y58.457
G1 X61.152 Y58.463
G1 X61.157 Y58.473
G1 X61.161 Y58.483
G1 X61.166 Y58.492
G1 X61.170 Y58.501
G1 X61.174 Y58.510
G1 X61.179 Y58.520
G1 X61.184 Y58.530
G1 X61.189 Y58.540
G1 X61.194 Y58.549
G1 X61.198 Y58.558
G1 X61.199 Y58.560
G1 X61.204 Y58.570
G1 X61.210 Y58.580
G1 X61.215 Y58.590
G1 X61.219 Y58.599
G1 X61.224 Y58.609
G1 X61.226 Y58.613
G1 X61.231 Y58.623
G1 X61.237 Y58.633
G1 X61.242 Y58.642
G1 X61.247 Y58.652
G1 X61.252 Y58.661
G1 X61.255 Y58.667
G1 X61.261 Y58.677
G1 X61.266 Y58.687
G1 X61.271 Y58.697
G1 X61.277 Y58.706
G1 X61.282 Y58.716
G1 X61.286 Y58.723
G1 X61.291 Y58.733
G1 X61.297 Y58.743
G1 X61.303 Y58.753
G1 X61.308 Y58.762
G1 X61.314 Y58.772
G1 X61.318 Y58.780
G1 X61.324 Y58.790
G1 X61.330 Y58.800
G1 X61.336 Y58.810
G1 X61.342 Y58.820
G1 X61.348 Y58.829
G1 X61.353 Y58.838
G1 X61.359 Y58.848
G1 X61.365 Y58.858
G1 X61.372 Y58.868
G1 X61.378 Y58.878
G1 X61.383 Y58.887
G1 X61.389 Y58.897
G1 X61.389 Y58.897
G1 X61.396 Y58.907
G1 X61.402 Y58.917
G1 X61.409 Y58.927
G1 X61.415 Y58.936
G1 X61.421 Y58.946
G1 X61.427 Y58.955
G1 X61.428 Y58.957
G1 X61.435 Y58.966
G1 X61.441 Y58.976
G1 X61.448 Y58.986
G1 X61.454 Y58.995
G1 X61.461 Y59.005
G1 X61.467 Y59.014
G1 X61.468 Y59.017
G1 X61.475 Y59.026
G1 X61.482 Y59.036
G1 X61.489 Y59.045
G1 X61.495 Y59.055
G1 X61.502 Y59.064
G1 X61.508 Y59.074
G1 X61.510 Y59.077
G1 X61.517 Y59.086
G1 X61.524 Y59.096
G1 X61.531 Y59.105
G1 X61.538 Y59.115
G1 X61.545 Y59.124
G1 X61.551 Y59.133
G1 X61.554 Y59.137
G1 X61.561 Y59.146
G1 X61.568 Y59.155
G1 X61.575 Y59.165
G1 X61.582 Y59.174
G1 X61.589 Y59.183
G1 X61.596 Y59.192
G1 X61.599 Y59.197
G1 X61.606 Y59.206
G1 X61.614 Y59.215
G1 X61.621 Y59.224
G1 X61.628 Y59.233
G1 X61.635 Y59.242
G1 X61.642 Y59.251
G1 X61.646 Y59.256
G1 X61.653 Y59.265
G1 X61.660 Y59.274
G1 X61.668 Y59.283
G1 X61.675 Y59.292
G1 X61.682 Y59.301
G1 X61.689 Y59.310
G1 X61.693 Y59.315
G1 X61.701 Y59.324
G1 X61.708 Y59.332
G1 X61.716 Y59.341
G1 X61.723 Y59.350
G1 X61.731 Y59.359
G1 X61.738 Y59.368
G1 X61.742 Y59.372
G1 X61.750 Y59.381
G1 X61.757 Y59.390
G1 X61.765 Y59.399
G1 X61.773 Y59.407
G1 X61.780 Y59.416
G1 X61.788 Y59.425
G1 X61.792 Y59.429
G1 X61.799 Y59.438
G1 X61.807 Y59.446
G1 X61.815 Y59.455
G1 X61.823 Y59.463
G1 X61.830 Y59.472
G1 X61.838 Y59.480
G1 X61.842 Y59.485
G1 X61.850 Y59.493
G1 X61.858 Y59.501
G1 X61.866 Y59.510
G1 X61.874 Y59.518
G1 X61.882 Y59.526
G1 X61.890 Y59.535
G1 X61.893 Y59.539
G1 X61.901 Y59.547
G1 X61.910 Y59.555
G1 X61.918 Y59.563
G1 X61.926 Y59.571
G1 X61.934 Y59.579
G1 X61.942 Y59.588
G1 X61.945 Y59.591
G1 X61.954 Y59.599
G1 X61.962 Y59.607
G1 X61.970 Y59.615
G1 X61.979 Y59.623
G1 X61.987 Y59.631
G1 X61.995 Y59.639
G1 X61.999 Y59.642
G1 X62.007 Y59.650
G1 X62.016 Y59.658
G1 X62.024 Y59.665
G1 X62.033 Y59.673
G1 X62.041 Y59.681
G1 X62.050 Y59.689
G1 X62.053 Y59.692
G1 X62.062 Y59.699
G1 X62.070 Y59.707
G1 X62.079 Y59.714
G1 X62.088 Y59.722
G1 X62.096 Y59.729
G1 X62.105 Y59.737
G1 X62.108 Y59.740
G1 X62.117 Y59.747
G1 X62.126 Y59.755
G1 X62.135 Y59.762
G1 X62.144 Y59.769
G1 X62.153 Y59.777
G1 X62.161 Y59.784
G1 X62.166 Y59.788
G1 X62.175 Y59.795
G1 X62.184 Y59.802
G1 X62.193 Y59.809
G1 X62.202 Y59.816
G1 X62.211 Y59.823
G1 X62.220 Y59.830
G1 X62.225 Y59.835
G1 X62.234 Y59.841
G1 X62.243 Y59.848
G1 X62.252 Y59.855
G1 X62.261 Y59.862
G1 X62.271 Y59.869
G1 X62.280 Y59.876
G1 X62.287 Y59.882
G1 X62.296 Y59.888
G1 X62.305 Y59.895
G1 X62.314 Y59.902
G1 X62.324 Y59.909
G1 X62.333 Y59.916
G1 X62.342 Y59.923
G1 X62.351 Y59.930
G1 X62.361 Y59.936
G1 X62.370 Y59.943
G1 X62.379 Y59.950
G1 X62.389 Y59.957
G1 X62.399 Y59.964
G1 X62.408 Y59.971
G1 X62.418 Y59.978
G1 X62.419 Y59.979
G1 X62.429 Y59.986
G1 X62.439 Y59.993
G1 X62.448 Y60.000
G1 X62.458 Y60.007
G1 X62.468 Y60.014
G1 X62.478 Y60.021
G1 X62.487 Y60.028
G1 X62.492 Y60.031
G1 X62.501 Y60.038
G1 X62.511 Y60.045
G1 X62.521 Y60.053
G1 X62.531 Y60.060
G1 X62.541 Y60.067
G1 X62.551 Y60.075
G1 X62.562 Y60.083
G1 X62.568 Y60.088
G1 X62.578 Y60.095
G1 X62.589 Y60.102
G1 X62.599 Y60.110
G1 X62.609 Y60.118
G1 X62.620 Y60.126
G1 X62.630 Y60.134
G1 X62.641 Y60.142
G1 X62.650 Y60.149
G1 X62.661 Y60.157
G1 X62.671 Y60.165
G1 X62.682 Y60.173
G1 X62.693 Y60.181
G1 X62.704 Y60.190
G1 X62.715 Y60.198
G1 X62.726 Y60.207
G1 X62.737 Y60.216
G1 X62.738 Y60.216
G1 X62.749 Y60.225
G1 X62.760 Y60.234
G1 X62.771 Y60.243
G1 X62.782 Y60.252
G1 X62.793 Y60.261
G1 X62.805 Y60.270
G1 X62.816 Y60.279
G1 X62.828 Y60.289
G1 X62.831 Y60.291
G1 X62.842 Y60.301
G1 X62.854 Y60.310
G1 X62.865 Y60.320
G1 X62.877 Y60.330
G1 X62.889 Y60.339
G1 X62.901 Y60.349
G1 X62.913 Y60.360
G1 X62.925 Y60.370
G1 X62.929 Y60.373
G1 X62.941 Y60.384
G1 X62.953 Y60.394
G1 X62.965 Y60.405
G1 X62.977 Y60.415
G1 X62.989 Y60.426
G1 X63.002 Y60.437
G1 X63.014 Y60.448
G1 X63.026 Y60.459
G1 X63.031 Y60.463
G1 X63.043 Y60.474
G1 X63.056 Y60.485
G1 X63.068 Y60.497
G1 X63.081 Y60.508
G1 X63.093 Y60.520
G1 X63.106 Y60.531
G1 X63.118 Y60.543
G1 X63.131 Y60.555
G1 X63.135 Y60.559
G1 X63.148 Y60.571
G1 X63.160 Y60.583
G1 X63.173 Y60.595
G1 X63.185 Y60.607
G1 X63.198 Y60.619
G1 X63.210 Y60.631
G1 X63.223 Y60.643
G1 X63.235 Y60.655
G1 X63.239 Y60.659
G1 X63.251 Y60.671
G1 X63.264 Y60.684
G1 X63.276 Y60.696
G1 X63.288 Y60.709
G1 X63.301 Y60.721
G1 X63.313 Y60.734
G1 X63.325 Y60.746
G1 X63.337 Y60.759
G1 X63.339 Y60.760
G1 X63.351 Y60.773
G1 X63.363 Y60.785
G1 X63.375 Y60.798
G1 X63.387 Y60.810
G1 X63.398 Y60.823
G1 X63.410 Y60.836
G1 X63.421 Y60.848
G1 X63.432 Y60.860
G1 X63.443 Y60.872
G1 X63.455 Y60.885
G1 X63.466 Y60.897
G1 X63.477 Y60.909
G1 X63.488 Y60.922
G1 X63.498 Y60.934
G1 X63.509 Y60.946
G1 X63.516 Y60.954
G1 X63.526 Y60.966
G1 X63.537 Y60.978
G1 X63.547 Y60.990
G1 X63.557 Y61.002
G1 X63.566 Y61.014
G1 X63.576 Y61.026
G1 X63.586 Y61.038
G1 X63.589 Y61.042
G1 X63.598 Y61.053
G1 X63.607 Y61.065
G1 X63.616 Y61.076
G1 X63.625 Y61.087
G1 X63.634 Y61.099
G1 X63.642 Y61.110
G1 X63.650 Y61.120
G1 X63.658 Y61.131
G1 X63.666 Y61.142
G1 X63.674 Y61.153
G1 X63.681 Y61.163
G1 X63.689 Y61.174
G1 X63.696 Y61.184
G1 X63.700 Y61.190
G1 X63.707 Y61.200
G1 X63.714 Y61.210
G1 X63.720 Y61.220
G1 X63.727 Y61.230
G1 X63.733 Y61.240
G1 X63.739 Y61.250
G1 X63.740 Y61.251
G1 X63.745 Y61.260
G1 X63.751 Y61.269
G1 X63.756 Y61.279
G1 X63.761 Y61.288
G1 X63.767 Y61.297
G1 X63.770 Y61.302
G1 X63.774 Y61.311
G1 X63.779 Y61.319
G1 X63.783 Y61.328
G1 X63.787 Y61.336
G1 X63.791 Y61.345
G1 X63.792 Y61.346
G1 X63.795 Y61.354
G1 X63.798 Y61.361
G1 X63.802 Y61.369
G1 X63.805 Y61.377
G1 X63.807 Y61.382
G1 X63.809 Y61.389
G1 X63.812 Y61.396
G1 X63.814 Y61.403
G1 X63.816 Y61.410
G1 X63.816 Y61.411
G1 X63.818 Y61.417
G1 X63.819 Y61.424
G1 X63.821 Y61.430
G1 X63.822 Y61.434
G1 X63.822 Y61.440
G1 X63.823 Y61.446
G1 X63.824 Y61.452
G1 X63.824 Y61.452
G1 X63.823 Y61.457
G1 X63.823 Y61.462
G1 X63.823 Y61.465
G1 X63.822 Y61.469
G1 X63.822 Y61.474
G1 X63.820 Y61.478
G1 X63.819 Y61.480
G1 X63.817 Y61.483
G1 X63.816 Y61.483
G1 X63.817 Y61.483
G1 X63.819 Y61.481
G1 X63.823 Y61.480
G1 X63.824 Y61.479
G1 X63.829 Y61.479
G1 X63.833 Y61.478
G1 X63.839 Y61.478
G1 X63.844 Y61.478
G1 X63.846 Y61.478
G1 X63.852 Y61.479
G1 X63.858 Y61.480
G1 X63.863 Y61.481
G1 X63.870 Y61.482
G1 X63.876 Y61.484
G1 X63.883 Y61.486
G1 X63.886 Y61.486
G1 X63.893 Y61.489
G1 X63.900 Y61.491
G1 X63.908 Y61.494
G1 X63.915 Y61.496
G1 X63.923 Y61.500
G1 X63.930 Y61.503
G1 X63.938 Y61.506
G1 X63.946 Y61.510
G1 X63.951 Y61.512
G1 X63.959 Y61.516
G1 X63.967 Y61.520
G1 X63.976 Y61.524
G1 X63.984 Y61.529
G1 X63.993 Y61.534
G1 X63.994 Y61.534
G1 X64.003 Y61.539
G1 X64.012 Y61.544
G1 X64.021 Y61.550
G1 X64.030 Y61.555
G1 X64.039 Y61.561
G1 X64.045 Y61.564
G1 X64.055 Y61.570
G1 X64.065 Y61.577
G1 X64.074 Y61.583
G1 X64.084 Y61.589
G1 X64.094 Y61.596
G1 X64.104 Y61.603
G1 X64.105 Y61.604
G1 X64.116 Y61.611
G1 X64.126 Y61.618
G1 X64.137 Y61.626
G1 X64.147 Y61.633
G1 X64.158 Y61.641
G1 X64.169 Y61.649
G1 X64.175 Y61.654
G1 X64.186 Y61.662
G1 X64.197 Y61.671
G1 X64.208 Y61.679
G1 X64.219 Y61.688
G1 X64.231 Y61.697
G1 X64.242 Y61.706
G1 X64.253 Y61.715
G1 X64.254 Y61.715
G1 X64.265 Y61.725
G1 X64.277 Y61.734
G1 X64.289 Y61.744
G1 X64.300 Y61.754
G1 X64.312 Y61.764
G1 X64.324 Y61.774
G1 X64.336 Y61.784
G1 X64.341 Y61.788
G1 X64.353 Y61.799
G1 X64.365 Y61.809
G1 X64.377 Y61.820
G1 X64.389 Y61.831
G1 X64.401 Y61.842
G1 X64.413 Y61.853
G1 X64.426 Y61.864
G1 X64.435 Y61.872
G1 X64.447 Y61.884
G1 X64.460 Y61.895
G1 X64.472 Y61.907
G1 X64.484 Y61.918
G1 X64.496 Y61.930
G1 X64.509 Y61.941
G1 X64.521 Y61.953
G1 X64.533 Y61.965
G1 X64.534 Y61.966
G1 X64.547 Y61.978
G1 X64.559 Y61.990
G1 X64.571 Y62.002
G1 X64.583 Y62.014
G1 X64.595 Y62.026
G1 X64.607 Y62.038
G1 X64.619 Y62.050
G1 X64.631 Y62.062
G1 X64.635 Y62.066
G1 X64.647 Y62.078
G1 X64.659 Y62.091
G1 X64.671 Y62.103
G1 X64.683 Y62.115
G1 X64.694 Y62.127
G1 X64.706 Y62.139
G1 X64.718 Y62.152
G1 X64.729 Y62.164
G1 X64.735 Y62.170
G1 X64.746 Y62.182
G1 X64.758 Y62.195
G1 X64.769 Y62.207
G1 X64.780 Y62.219
G1 X64.791 Y62.231
G1 X64.802 Y62.243
G1 X64.813 Y62.255
G1 X64.824 Y62.268
G1 X64.831 Y62.275
G1 X64.841 Y62.287
G1 X64.852 Y62.299
G1 X64.862 Y62.311
G1 X64.873 Y62.323
G1 X64.883 Y62.335
G1 X64.893 Y62.346
G1 X64.903 Y62.358
G1 X64.913 Y62.370
G1 X64.920 Y62.378
G1 X64.930 Y62.389
G1 X64.939 Y62.401
G1 X64.949 Y62.412
G1 X64.959 Y62.424
G1 X64.968 Y62.435
G1 X64.977 Y62.447
G1 X64.987 Y62.458
G1 X64.996 Y62.469
G1 X65.001 Y62.476
G1 X65.011 Y62.488
G1 X65.020 Y62.499
G1 X65.028 Y62.510
G1 X65.037 Y62.521
G1 X65.046 Y62.532
G1 X65.054 Y62.543
G1 X65.063 Y62.553
G1 X65.071 Y62.564
G1 X65.075 Y62.570
G1 X65.084 Y62.581
G1 X65.092 Y62.591
G1 X65.100 Y62.602
G1 X65.108 Y62.613
G1 X65.116 Y62.623
G1 X65.124 Y62.633
G1 X65.132 Y62.644
G1 X65.139 Y62.654
G1 X65.142 Y62.658
G1 X65.150 Y62.668
G1 X65.158 Y62.679
G1 X65.165 Y62.689
G1 X65.173 Y62.699
G1 X65.180 Y62.709
G1 X65.187 Y62.719
G1 X65.194 Y62.729
G1 X65.201 Y62.739
G1 X65.203 Y62.741
G1 X65.210 Y62.751
G1 X65.217 Y62.760
G1 X65.224 Y62.770
G1 X65.231 Y62.780
G1 X65.238 Y62.790
G1 X65.245 Y62.799
G1 X65.252 Y62.809
G1 X65.258 Y62.818
G1 X65.258 Y62.818
G1 X65.265 Y62.828
G1 X65.272 Y62.837
G1 X65.279 Y62.847
G1 X65.285 Y62.856
G1 X65.292 Y62.866
G1 X65.299 Y62.875
G1 X65.305 Y62.884
G1 X65.310 Y62.891
G1 X65.317 Y62.900
G1 X65.323 Y62.910
G1 X65.330 Y62.919
G1 X65.336 Y62.928
G1 X65.343 Y62.937
G1 X65.349 Y62.946
G1 X65.355 Y62.955
G1 X65.359 Y62.960
G1 X65.365 Y62.969
G1 X65.372 Y62.978
G1 X65.378 Y62.987
G1 X65.385 Y62.996
G1 X65.391 Y63.005
G1 X65.398 Y63.014
G1 X65.404 Y63.023
G1 X65.406 Y63.025
G1 X65.412 Y63.034
G1 X65.419 Y63.043
G1 X65.426 Y63.052
G1 X65.432 Y63.061
G1 X65.439 Y63.070
G1 X65.445 Y63.078
G1 X65.451 Y63.087
G1 X65.452 Y63.088
G1 X65.459 Y63.097
G1 X65.466 Y63.105
G1 X65.472 Y63.114
G1 X65.479 Y63.123
G1 X65.486 Y63.131
G1 X65.492 Y63.140
G1 X65.498 Y63.148
G1 X65.505 Y63.157
G1 X65.512 Y63.165
G1 X65.519 Y63.174
G1 X65.526 Y63.182
G1 X65.533 Y63.191
G1 X65.539 Y63.199
G1 X65.545 Y63.206
G1 X65.552 Y63.214
G1 X65.559 Y63.223
G1 X65.566 Y63.231
G1 X65.573 Y63.239
G1 X65.580 Y63.248
G1 X65.587 Y63.256
G1 X65.593 Y63.262
G1 X65.600 Y63.270
G1 X65.607 Y63.279
G1 X65.615 Y63.287
G1 X65.622 Y63.295
G1 X65.629 Y63.303
G1 X65.636 Y63.311
G1 X65.642 Y63.317
G1 X65.649 Y63.325
G1 X65.657 Y63.333
G1 X65.664 Y63.341
G1 X65.672 Y63.349
G1 X65.679 Y63.357
G1 X65.687 Y63.365
G1 X65.692 Y63.371
G1 X65.700 Y63.379
G1 X65.708 Y63.386
G1 X65.715 Y63.394
G1 X65.723 Y63.402
G1 X65.731 Y63.410
G1 X65.738 Y63.418
G1 X65.744 Y63.423
G1 X65.752 Y63.431
G1 X65.760 Y63.439
G1 X65.768 Y63.446
G1 X65.776 Y63.454
G1 X65.784 Y63.461
G1 X65.792 Y63.469
G1 X65.798 Y63.475
G1 X65.806 Y63.482
G1 X65.814 Y63.490
G1 X65.822 Y63.497
G1 X65.830 Y63.505
G1 X65.838 Y63.512
G1 X65.846 Y63.520
G1 X65.853 Y63.526
G1 X65.861 Y63.533
G1 X65.869 Y63.540
G1 X65.878 Y63.548
G1 X65.886 Y63.555
G1 X65.894 Y63.562
G1 X65.902 Y63.569
G1 X65.909 Y63.576
G1 X65.918 Y63.583
G1 X65.926 Y63.590
G1 X65.934 Y63.597
G1 X65.943 Y63.604
G1 X65.951 Y63.611
G1 X65.960 Y63.618
G1 X65.967 Y63.625
G1 X65.975 Y63.631
G1 X65.984 Y63.638
G1 X65.992 Y63.645
G1 X66.001 Y63.652
G1 X66.010 Y63.659
G1 X66.018 Y63.666
G1 X66.025 Y63.672
G1 X66.034 Y63.679
G1 X66.043 Y63.686
G1 X66.051 Y63.692
G1 X66.060 Y63.699
G1 X66.069 Y63.706
G1 X66.078 Y63.713
G1 X66.085 Y63.719
G1 X66.094 Y63.725
G1 X66.102 Y63.732
G1 X66.111 Y63.738
G1 X66.120 Y63.745
G1 X66.129 Y63.752
G1 X66.138 Y63.759
G1 X66.145 Y63.764
G1 X66.154 Y63.770
G1 X66.162 Y63.777
G1 X66.171 Y63.783
G1 X66.180 Y63.790
G1 X66.189 Y63.796
G1 X66.198 Y63.803
G1 X66.205 Y63.808
G1 X66.214 Y63.814
G1 X66.223 Y63.820
G1 X66.232 Y63.826
G1 X66.241 Y63.832
G1 X66.250 Y63.839
G1 X66.259 Y63.845
G1 X66.265 Y63.849
G1 X66.274 Y63.855
G1 X66.283 Y63.861
G1 X66.292 Y63.867
G1 X66.302 Y63.873
G1 X66.311 Y63.880
G1 X66.320 Y63.886
G1 X66.325 Y63.890
G1 X66.334 Y63.895
G1 X66.344 Y63.901
G1 X66.353 Y63.907
G1 X66.362 Y63.913
G1 X66.371 Y63.919
G1 X66.381 Y63.925
G1 X66.385 Y63.928
G1 X66.394 Y63.933
G1 X66.404 Y63.938
G1 X66.413 Y63.944
G1 X66.422 Y63.950
G1 X66.432 Y63.956
G1 X66.441 Y63.962
G1 X66.445 Y63.964
G1 X66.454 Y63.969
G1 X66.463 Y63.974
G1 X66.472 Y63.979
G1 X66.482 Y63.985
G1 X66.491 Y63.991
G1 X66.501 Y63.996
G1 X66.503 Y63.998
G1 X66.512 Y64.003
G1 X66.521 Y64.008
G1 X66.531 Y64.013
G1 X66.540 Y64.018
G1 X66.550 Y64.024
G1 X66.559 Y64.029
G1 X66.561 Y64.030
G1 X66.570 Y64.035
G1 X66.579 Y64.039
G1 X66.588 Y64.044
G1 X66.598 Y64.049
G1 X66.607 Y64.054
G1 X66.617 Y64.060
G1 X66.617 Y64.060
G1 X66.626 Y64.065
G1 X66.635 Y64.069
G1 X66.645 Y64.074
G1 X66.654 Y64.079
G1 X66.663 Y64.084
G1 X66.672 Y64.088
G1 X66.681 Y64.092
G1 X66.690 Y64.097
G1 X66.699 Y64.101
G1 X66.709 Y64.106
G1 X66.718 Y64.111
G1 X66.725 Y64.114
G1 X66.734 Y64.118
G1 X66.743 Y64.122
G1 X66.752 Y64.127
G1 X66.762 Y64.131
G1 X66.771 Y64.136
G1 X66.776 Y64.139
G1 X66.785 Y64.142
G1 X66.794 Y64.146
G1 X66.803 Y64.150
G1 X66.812 Y64.155
G1 X66.822 Y64.159
G1 X66.824 Y64.161
G1 X66.833 Y64.164
G1 X66.842 Y64.168
G1 X66.851 Y64.172
G1 X66.860 Y64.176
G1 X66.869 Y64.180
G1 X66.877 Y64.184
G1 X66.886 Y64.187
G1 X66.895 Y64.191
G1 X66.904 Y64.195
G1 X66.909 Y64.197
G1 X66.918 Y64.200
G1 X66.926 Y64.204
G1 X66.935 Y64.207
G1 X66.944 Y64.211
G1 X66.945 Y64.212
G1 X66.953 Y64.214
G1 X66.961 Y64.217
G1 X66.970 Y64.220
G1 X66.975 Y64.223
G1 X66.983 Y64.225
G1 X66.990 Y64.227
G1 X66.998 Y64.230
G1 X66.999 Y64.230
G1 X67.006 Y64.232
G1 X67.013 Y64.233
G1 X67.016 Y64.234
G1 X67.022 Y64.235
G1 X67.026 Y64.235
G1 X67.031 Y64.234
G1 X67.033 Y64.234
G1 X67.032 Y64.235
G1 X67.031 Y64.240
G1 X67.031 Y64.240
G1 X67.032 Y64.246
G1 X67.032 Y64.251
G1 X67.034 Y64.258
G1 X67.035 Y64.265
G1 X67.036 Y64.268
G1 X67.038 Y64.276
G1 X67.041 Y64.284
G1 X67.043 Y64.291
G1 X67.043 Y64.292
G1 X67.046 Y64.300
G1 X67.049 Y64.309
G1 X67.052 Y64.317
G1 X67.054 Y64.322
G1 X67.058 Y64.331
G1 X67.061 Y64.340
G1 X67.064 Y64.348
G1 X67.067 Y64.356
G1 X67.068 Y64.358
G1 X67.072 Y64.367
G1 X67.076 Y64.376
G1 X67.079 Y64.385
G1 X67.082 Y64.393
G1 X67.085 Y64.399
G1 X67.089 Y64.408
G1 X67.093 Y64.417
G1 X67.097 Y64.426
G1 X67.100 Y64.435
G1 X67.104 Y64.443
G1 X67.104 Y64.444
G1 X67.108 Y64.453
G1 X67.113 Y64.462
G1 X67.117 Y64.471
G1 X67.120 Y64.480
